;FLAVOR:Marlin
;TIME:4656
;Filament used: 5.14692m
;Layer height: 0.2
;MINX:78.04
;MINY:53.04
;MINZ:0.2
;MAXX:131.96
;MAXY:156.96
;MAXZ:9.8
;Generated with Cura_SteamEngine 4.9.0
M140 S70
M105
M190 S70
M104 S215
M105
M109 S215
M82 ;absolute extrusion mode
G21 ;metric values
G90 ;absolute positioning
M82 ;set extruder to absolute mode
M107 ;start with the fan off
G28 X0 Y0 ;move X/Y to min endstops
G28 Z0 ;move Z to min endstops
G1 Z15.0 F100 ;move the platform down 15mm
G92 E0 ;zero the extruded length
G1 F200 E3 ;extrude 3mm of feed stock
G92 E0 ;zero the extruded length again
G1 F100
G0 Y20 F100
M117 Printing...
G5
G92 E0
G92 E0
G1 F2400 E-4
;LAYER_COUNT:49
;LAYER:0
M107
M204 S3000
M205 X10 Y10
G1 F600 Z0.275
G0 F3000 X78.389 Y64.047 Z0.275
M204 S1800
M205 X8 Y8
;TYPE:SKIRT
G1 F600 Z0.2
G1 F2400 E0.03326
G1 X78.778 Y63.614 E0.06036
G1 X79.084 Y63.364 E0.07876
G1 X79.435 Y63.181 E0.0972
G1 X79.815 Y63.071 E0.11562
G1 X80.164 Y63.04 E0.13193
G1 X88.04 Y63.04 E0.49867
G1 X88.04 Y55.164 E0.86541
G1 X88.08 Y54.771 E0.8838
G1 X88.198 Y54.393 E0.90224
G1 X88.389 Y54.047 E0.92065
G1 X88.778 Y53.614 E0.94775
G1 X89.084 Y53.364 E0.96615
G1 X89.435 Y53.181 E0.98458
G1 X89.815 Y53.071 E1.003
G1 X90.164 Y53.04 E1.01932
G1 X129.836 Y53.04 E2.86661
G1 X130.229 Y53.08 E2.88501
G1 X130.607 Y53.198 E2.90345
G1 X130.953 Y53.389 E2.92185
G1 X131.386 Y53.778 E2.94895
G1 X131.636 Y54.084 E2.96735
G1 X131.819 Y54.435 E2.98578
G1 X131.929 Y54.815 E3.0042
G1 X131.96 Y55.164 E3.02052
G1 X131.96 Y154.836 E7.66166
G1 X131.92 Y155.229 E7.68006
G1 X131.802 Y155.607 E7.6985
G1 X131.611 Y155.953 E7.7169
G1 X131.222 Y156.386 E7.744
G1 X130.916 Y156.636 E7.7624
G1 X130.565 Y156.819 E7.78084
G1 X130.185 Y156.929 E7.79926
G1 X129.836 Y156.96 E7.81557
G1 X80.164 Y156.96 E10.12851
G1 X79.771 Y156.92 E10.1469
G1 X79.393 Y156.802 E10.16534
G1 X79.047 Y156.611 E10.18374
G1 X78.614 Y156.222 E10.21085
G1 X78.364 Y155.916 E10.22925
G1 X78.181 Y155.565 E10.24768
G1 X78.071 Y155.185 E10.2661
G1 X78.04 Y154.836 E10.28242
G1 X78.04 Y65.164 E14.45792
G1 X78.08 Y64.771 E14.47631
G1 X78.198 Y64.393 E14.49475
G1 X78.389 Y64.047 E14.51316
M204 S3000
M205 X10 Y10
G0 F3000 X78.757 Y64.52
M204 S1800
M205 X8 Y8
G1 F2400 X79.174 Y64.01 E14.54383
G1 X79.437 Y63.804 E14.55939
G1 X79.741 Y63.665 E14.57495
G1 X80.164 Y63.6 E14.59488
G1 X88.6 Y63.6 E14.9877
G1 X88.6 Y55.164 E15.38051
G1 X88.64 Y54.832 E15.39608
G1 X88.757 Y54.52 E15.4116
G1 X89.174 Y54.01 E15.44227
G1 X89.437 Y53.804 E15.45783
G1 X89.741 Y53.665 E15.47339
G1 X90.164 Y53.6 E15.49332
G1 X129.836 Y53.6 E17.34062
G1 X130.168 Y53.64 E17.35619
G1 X130.48 Y53.757 E17.3717
G1 X130.99 Y54.174 E17.40238
G1 X131.196 Y54.437 E17.41793
G1 X131.335 Y54.741 E17.4335
G1 X131.4 Y55.164 E17.45343
G1 X131.4 Y154.836 E22.09457
G1 X131.36 Y155.168 E22.11014
G1 X131.243 Y155.48 E22.12566
G1 X130.826 Y155.99 E22.15634
G1 X130.563 Y156.196 E22.17189
G1 X130.259 Y156.335 E22.18746
G1 X129.836 Y156.4 E22.20739
G1 X80.164 Y156.4 E24.52032
G1 X79.832 Y156.36 E24.53589
G1 X79.52 Y156.243 E24.55141
G1 X79.01 Y155.826 E24.58208
G1 X78.804 Y155.563 E24.59764
G1 X78.665 Y155.259 E24.6132
G1 X78.6 Y154.836 E24.63313
G1 X78.6 Y65.164 E28.80864
G1 X78.64 Y64.832 E28.82421
G1 X78.757 Y64.52 E28.83972
M204 S3000
M205 X10 Y10
G0 F3000 X79.406 Y64.57
M204 S1800
M205 X8 Y8
G1 F2400 X79.779 Y64.254 E28.86249
G1 X80.164 Y64.16 E28.88094
G1 X89.16 Y64.16 E29.29983
G1 X89.16 Y55.164 E29.71872
G1 X89.2 Y54.909 E29.73074
G1 X89.406 Y54.57 E29.74921
G1 X89.779 Y54.254 E29.77198
G1 X90.164 Y54.16 E29.79043
G1 X129.836 Y54.16 E31.63773
G1 X130.091 Y54.2 E31.64974
G1 X130.43 Y54.406 E31.66822
G1 X130.746 Y54.779 E31.69098
G1 X130.84 Y55.164 E31.70943
G1 X130.84 Y154.836 E36.35058
G1 X130.8 Y155.091 E36.3626
G1 X130.594 Y155.43 E36.38107
G1 X130.221 Y155.746 E36.40383
G1 X129.836 Y155.84 E36.42229
G1 X80.164 Y155.84 E38.73522
G1 X79.909 Y155.8 E38.74724
G1 X79.57 Y155.594 E38.76571
G1 X79.254 Y155.221 E38.78848
G1 X79.16 Y154.836 E38.80693
G1 X79.16 Y65.164 E42.98243
G1 X79.2 Y64.909 E42.99445
G1 X79.406 Y64.57 E43.01292
M204 S3000
M205 X10 Y10
G0 F3000 X79.802 Y64.966
M204 S1800
M205 X8 Y8
G1 F2400 X79.966 Y64.802 E43.02372
G1 X80.164 Y64.72 E43.0337
G1 X89.72 Y64.72 E43.47867
G1 X89.72 Y55.164 E43.92364
G1 X89.802 Y54.966 E43.93362
G1 X89.966 Y54.802 E43.94442
G1 X90.164 Y54.72 E43.9544
G1 X129.836 Y54.72 E45.80169
G1 X130.034 Y54.802 E45.81167
G1 X130.198 Y54.966 E45.82247
G1 X130.28 Y55.164 E45.83245
G1 X130.28 Y154.836 E50.47359
G1 X130.198 Y155.034 E50.48357
G1 X130.034 Y155.198 E50.49437
G1 X129.836 Y155.28 E50.50435
G1 X80.164 Y155.28 E52.81729
G1 X79.966 Y155.198 E52.82727
G1 X79.802 Y155.034 E52.83807
G1 X79.72 Y154.836 E52.84805
G1 X79.72 Y65.164 E57.02355
G1 X79.802 Y64.966 E57.03353
M204 S3000
M205 X10 Y10
G1 F2400 E53.03353
;MESH:demofield2mx.stl
G0 F3000 X80.854 Y65.854
G0 X90.868 Y65.868
G0 X90.28 Y65.28
M204 S1800
M205 X8 Y8
;TYPE:WALL-OUTER
G1 F2400 E57.06679
G1 F1500 X90.28 Y55.28 E57.53243
G1 X129.72 Y55.28 E59.36892
G1 X129.72 Y154.72 E63.99927
G1 X80.28 Y154.72 E66.3014
G1 X80.28 Y65.28 E70.4661
G1 X90.28 Y65.28 E70.93174
M204 S3000
M205 X10 Y10
G0 F3000 X90.28 Y65.08
G0 X90.94 Y65.08
G0 X109.06 Y115.28
G0 X109.72 Y115.28
M204 S1800
M205 X8 Y8
G1 F1500 X120.28 Y115.28 E71.42346
G1 X120.28 Y104.72 E71.91518
G1 X109.72 Y104.72 E72.4069
G1 X109.72 Y115.28 E72.89861
M204 S3000
M205 X10 Y10
G0 F3000 X109.92 Y115.28
G0 X109.16 Y115.84
M204 S1800
M205 X8 Y8
;TYPE:WALL-INNER
G1 F1500 X120.84 Y115.84 E73.44248
G1 X120.84 Y104.16 E73.98635
G1 X109.16 Y104.16 E74.53022
G1 X109.16 Y115.84 E75.07409
M204 S3000
M205 X10 Y10
G0 F3000 X109.09 Y115.91
G0 X90.91 Y65.91
G0 X90.84 Y65.84
M204 S1800
M205 X8 Y8
G1 F1500 X90.84 Y55.84 E75.53973
G1 X129.16 Y55.84 E77.32407
G1 X129.16 Y154.16 E81.90227
G1 X80.84 Y154.16 E84.15225
G1 X80.84 Y65.84 E88.2648
G1 X90.84 Y65.84 E88.73044
M204 S3000
M205 X10 Y10
G0 F3000 X91.4 Y66.4
M204 S1800
M205 X8 Y8
G1 F1500 X91.4 Y56.4 E89.19608
G1 X128.6 Y56.4 E90.92827
G1 X128.6 Y153.6 E95.45431
G1 X81.4 Y153.6 E97.65214
G1 X81.4 Y66.4 E101.71253
G1 X91.4 Y66.4 E102.17818
M204 S3000
M205 X10 Y10
G0 F3000 X108.6 Y116.4
M204 S1800
M205 X8 Y8
G1 F1500 X121.4 Y116.4 E102.7742
G1 X121.4 Y103.6 E103.37022
G1 X108.6 Y103.6 E103.96624
G1 X108.6 Y116.4 E104.56226
M204 S3000
M205 X10 Y10
G0 F3000 X108.05 Y116.95
M204 S1800
M205 X8 Y8
;TYPE:SKIN
G1 F1500 X121.95 Y116.95 E105.2095
G1 X121.95 Y103.05 E105.85675
G1 X108.05 Y103.05 E106.50399
G1 X108.05 Y116.95 E107.15123
M204 S3000
M205 X10 Y10
G0 F3000 X128.05 Y153.05
M204 S1800
M205 X8 Y8
G1 F1500 X81.95 Y153.05 E109.29784
G1 X81.95 Y66.95 E113.30702
G1 X91.95 Y66.95 E113.77266
G1 X91.95 Y56.95 E114.2383
G1 X128.05 Y56.95 E115.91927
G1 X128.05 Y153.05 E120.39409
M204 S3000
M205 X10 Y10
G0 F3000 X82.305 Y152.789
M204 S1800
M205 X8 Y8
G1 F1500 X82.209 Y152.694 E120.40038
M204 S3000
M205 X10 Y10
G0 F3000 X82.209 Y151.902
M204 S1800
M205 X8 Y8
G1 F1500 X83.097 Y152.789 E120.45882
M204 S3000
M205 X10 Y10
G0 F3000 X83.889 Y152.789
M204 S1800
M205 X8 Y8
G1 F1500 X82.209 Y151.11 E120.56942
M204 S3000
M205 X10 Y10
G0 F3000 X82.209 Y150.318
M204 S1800
M205 X8 Y8
G1 F1500 X84.68 Y152.789 E120.73214
M204 S3000
M205 X10 Y10
G0 F3000 X85.472 Y152.789
M204 S1800
M205 X8 Y8
G1 F1500 X82.209 Y149.526 E120.94701
M204 S3000
M205 X10 Y10
G0 F3000 X82.209 Y148.734
M204 S1800
M205 X8 Y8
G1 F1500 X86.264 Y152.789 E121.21404
M204 S3000
M205 X10 Y10
G0 F3000 X87.056 Y152.789
M204 S1800
M205 X8 Y8
G1 F1500 X82.209 Y147.942 E121.53322
M204 S3000
M205 X10 Y10
G0 F3000 X82.209 Y147.15
M204 S1800
M205 X8 Y8
G1 F1500 X87.848 Y152.789 E121.90456
M204 S3000
M205 X10 Y10
G0 F3000 X88.64 Y152.789
M204 S1800
M205 X8 Y8
G1 F1500 X82.209 Y146.358 E122.32805
M204 S3000
M205 X10 Y10
G0 F3000 X82.209 Y145.566
M204 S1800
M205 X8 Y8
G1 F1500 X89.432 Y152.789 E122.8037
M204 S3000
M205 X10 Y10
G0 F3000 X90.224 Y152.789
M204 S1800
M205 X8 Y8
G1 F1500 X82.209 Y144.774 E123.3315
M204 S3000
M205 X10 Y10
G0 F3000 X82.209 Y143.982
M204 S1800
M205 X8 Y8
G1 F1500 X91.016 Y152.789 E123.91146
M204 S3000
M205 X10 Y10
G0 F3000 X91.808 Y152.789
M204 S1800
M205 X8 Y8
G1 F1500 X82.209 Y143.19 E124.54357
M204 S3000
M205 X10 Y10
G0 F3000 X82.209 Y142.398
M204 S1800
M205 X8 Y8
G1 F1500 X92.6 Y152.789 E125.22783
M204 S3000
M205 X10 Y10
G0 F3000 X93.392 Y152.789
M204 S1800
M205 X8 Y8
G1 F1500 X82.209 Y141.606 E125.96425
M204 S3000
M205 X10 Y10
G0 F3000 X82.209 Y140.814
M204 S1800
M205 X8 Y8
G1 F1500 X94.184 Y152.789 E126.75283
M204 S3000
M205 X10 Y10
G0 F3000 X94.976 Y152.789
M204 S1800
M205 X8 Y8
G1 F1500 X82.209 Y140.022 E127.59356
M204 S3000
M205 X10 Y10
G0 F3000 X82.209 Y139.23
M204 S1800
M205 X8 Y8
G1 F1500 X95.768 Y152.789 E128.48644
M204 S3000
M205 X10 Y10
G0 F3000 X96.56 Y152.789
M204 S1800
M205 X8 Y8
G1 F1500 X82.209 Y138.438 E129.43148
M204 S3000
M205 X10 Y10
G0 F3000 X82.209 Y137.646
M204 S1800
M205 X8 Y8
G1 F1500 X97.352 Y152.789 E130.42867
M204 S3000
M205 X10 Y10
G0 F3000 X98.144 Y152.789
M204 S1800
M205 X8 Y8
G1 F1500 X82.209 Y136.854 E131.47802
M204 S3000
M205 X10 Y10
G0 F3000 X82.209 Y136.062
M204 S1800
M205 X8 Y8
G1 F1500 X98.936 Y152.789 E132.57952
M204 S3000
M205 X10 Y10
G0 F3000 X99.728 Y152.789
M204 S1800
M205 X8 Y8
G1 F1500 X82.209 Y135.27 E133.73317
M204 S3000
M205 X10 Y10
G0 F3000 X82.209 Y134.478
M204 S1800
M205 X8 Y8
G1 F1500 X100.52 Y152.789 E134.93898
M204 S3000
M205 X10 Y10
G0 F3000 X101.312 Y152.789
M204 S1800
M205 X8 Y8
G1 F1500 X82.209 Y133.687 E136.19692
M204 S3000
M205 X10 Y10
G0 F3000 X82.209 Y132.895
M204 S1800
M205 X8 Y8
G1 F1500 X102.104 Y152.789 E137.507
M204 S3000
M205 X10 Y10
G0 F3000 X102.896 Y152.789
M204 S1800
M205 X8 Y8
G1 F1500 X82.209 Y132.103 E138.86924
M204 S3000
M205 X10 Y10
G0 F3000 X82.209 Y131.311
M204 S1800
M205 X8 Y8
G1 F1500 X103.688 Y152.789 E140.28364
M204 S3000
M205 X10 Y10
G0 F3000 X104.479 Y152.789
M204 S1800
M205 X8 Y8
G1 F1500 X82.209 Y130.519 E141.75016
M204 S3000
M205 X10 Y10
G0 F3000 X82.209 Y129.727
M204 S1800
M205 X8 Y8
G1 F1500 X105.271 Y152.789 E143.26883
M204 S3000
M205 X10 Y10
G0 F3000 X106.063 Y152.789
M204 S1800
M205 X8 Y8
G1 F1500 X82.209 Y128.935 E144.83966
M204 S3000
M205 X10 Y10
G0 F3000 X82.209 Y128.143
M204 S1800
M205 X8 Y8
G1 F1500 X106.855 Y152.789 E146.46264
M204 S3000
M205 X10 Y10
G0 F3000 X107.647 Y152.789
M204 S1800
M205 X8 Y8
G1 F1500 X82.209 Y127.351 E148.13777
M204 S3000
M205 X10 Y10
G0 F3000 X82.209 Y126.559
M204 S1800
M205 X8 Y8
G1 F1500 X108.439 Y152.789 E149.86506
M204 S3000
M205 X10 Y10
G0 F3000 X109.231 Y152.789
M204 S1800
M205 X8 Y8
G1 F1500 X82.209 Y125.767 E151.64451
M204 S3000
M205 X10 Y10
G0 F3000 X82.209 Y124.975
M204 S1800
M205 X8 Y8
G1 F1500 X110.023 Y152.789 E153.47611
M204 S3000
M205 X10 Y10
G0 F3000 X110.815 Y152.789
M204 S1800
M205 X8 Y8
G1 F1500 X82.209 Y124.183 E155.35986
M204 S3000
M205 X10 Y10
G0 F3000 X82.209 Y123.391
M204 S1800
M205 X8 Y8
G1 F1500 X111.607 Y152.789 E157.29577
M204 S3000
M205 X10 Y10
G0 F3000 X112.399 Y152.789
M204 S1800
M205 X8 Y8
G1 F1500 X82.209 Y122.599 E159.28383
M204 S3000
M205 X10 Y10
G0 F3000 X82.209 Y121.807
M204 S1800
M205 X8 Y8
G1 F1500 X113.191 Y152.789 E161.32405
M204 S3000
M205 X10 Y10
G0 F3000 X113.983 Y152.789
M204 S1800
M205 X8 Y8
G1 F1500 X82.209 Y121.015 E163.41642
M204 S3000
M205 X10 Y10
G0 F3000 X82.209 Y120.223
M204 S1800
M205 X8 Y8
G1 F1500 X114.775 Y152.789 E165.56095
M204 S3000
M205 X10 Y10
G0 F3000 X115.567 Y152.789
M204 S1800
M205 X8 Y8
G1 F1500 X82.209 Y119.431 E167.75763
M204 S3000
M205 X10 Y10
G0 F3000 X82.209 Y118.639
M204 S1800
M205 X8 Y8
G1 F1500 X116.359 Y152.789 E170.00647
M204 S3000
M205 X10 Y10
G0 F3000 X117.151 Y152.789
M204 S1800
M205 X8 Y8
G1 F1500 X82.209 Y117.847 E172.30746
M204 S3000
M205 X10 Y10
G0 F3000 X82.209 Y117.055
M204 S1800
M205 X8 Y8
G1 F1500 X117.943 Y152.789 E174.6606
M204 S3000
M205 X10 Y10
G0 F3000 X118.735 Y152.789
M204 S1800
M205 X8 Y8
G1 F1500 X82.209 Y116.263 E177.0659
M204 S3000
M205 X10 Y10
G0 F3000 X82.209 Y115.471
M204 S1800
M205 X8 Y8
G1 F1500 X119.527 Y152.789 E179.52336
M204 S3000
M205 X10 Y10
G0 F3000 X120.319 Y152.789
M204 S1800
M205 X8 Y8
G1 F1500 X82.209 Y114.679 E182.03296
M204 S3000
M205 X10 Y10
G0 F3000 X82.209 Y113.888
M204 S1800
M205 X8 Y8
G1 F1500 X121.111 Y152.789 E184.59469
M204 S3000
M205 X10 Y10
G0 F3000 X121.903 Y152.789
M204 S1800
M205 X8 Y8
G1 F1500 X82.209 Y113.096 E187.20858
M204 S3000
M205 X10 Y10
G0 F3000 X82.209 Y112.304
M204 S1800
M205 X8 Y8
G1 F1500 X122.695 Y152.789 E189.87462
M204 S3000
M205 X10 Y10
G0 F3000 X123.487 Y152.789
M204 S1800
M205 X8 Y8
G1 F1500 X82.209 Y111.512 E192.59281
M204 S3000
M205 X10 Y10
G0 F3000 X82.209 Y110.72
M204 S1800
M205 X8 Y8
G1 F1500 X124.278 Y152.789 E195.36313
M204 S3000
M205 X10 Y10
G0 F3000 X125.07 Y152.789
M204 S1800
M205 X8 Y8
G1 F1500 X82.208 Y109.927 E198.18566
M204 S3000
M205 X10 Y10
G0 F3000 X82.208 Y109.135
M204 S1800
M205 X8 Y8
G1 F1500 X125.862 Y152.789 E201.06035
M204 S3000
M205 X10 Y10
G0 F3000 X126.654 Y152.789
M204 S1800
M205 X8 Y8
G1 F1500 X82.208 Y108.343 E203.9872
M204 S3000
M205 X10 Y10
G0 F3000 X82.208 Y107.551
M204 S1800
M205 X8 Y8
G1 F1500 X127.446 Y152.789 E206.9662
M204 S3000
M205 X10 Y10
G0 F3000 X127.79 Y152.341
M204 S1800
M205 X8 Y8
G1 F1500 X82.208 Y106.759 E209.96785
M204 S3000
M205 X10 Y10
G0 F3000 X82.208 Y105.967
M204 S1800
M205 X8 Y8
G1 F1500 X127.79 Y151.549 E212.9695
M204 S3000
M205 X10 Y10
G0 F3000 X127.79 Y150.757
M204 S1800
M205 X8 Y8
G1 F1500 X82.208 Y105.175 E215.97116
M204 S3000
M205 X10 Y10
G0 F3000 X82.208 Y104.383
M204 S1800
M205 X8 Y8
G1 F1500 X127.79 Y149.965 E218.97281
M204 S3000
M205 X10 Y10
G0 F3000 X127.79 Y149.173
M204 S1800
M205 X8 Y8
G1 F1500 X82.208 Y103.591 E221.97446
M204 S3000
M205 X10 Y10
G0 F3000 X82.208 Y102.799
M204 S1800
M205 X8 Y8
G1 F1500 X127.79 Y148.381 E224.97611
M204 S3000
M205 X10 Y10
G0 F3000 X127.79 Y147.589
M204 S1800
M205 X8 Y8
G1 F1500 X82.208 Y102.007 E227.97777
M204 S3000
M205 X10 Y10
G0 F3000 X82.208 Y101.215
M204 S1800
M205 X8 Y8
G1 F1500 X127.79 Y146.797 E230.97942
M204 S3000
M205 X10 Y10
G0 F3000 X127.79 Y146.005
M204 S1800
M205 X8 Y8
G1 F1500 X82.208 Y100.424 E233.98104
M204 S3000
M205 X10 Y10
G0 F3000 X82.208 Y99.632
M204 S1800
M205 X8 Y8
G1 F1500 X127.79 Y145.213 E236.98266
M204 S3000
M205 X10 Y10
G0 F3000 X127.79 Y144.421
M204 S1800
M205 X8 Y8
G1 F1500 X82.208 Y98.84 E239.98428
M204 S3000
M205 X10 Y10
G0 F3000 X82.208 Y98.048
M204 S1800
M205 X8 Y8
G1 F1500 X127.79 Y143.629 E242.9859
M204 S3000
M205 X10 Y10
G0 F3000 X127.79 Y142.837
M204 S1800
M205 X8 Y8
G1 F1500 X82.208 Y97.256 E245.98752
M204 S3000
M205 X10 Y10
G0 F3000 X82.208 Y96.464
M204 S1800
M205 X8 Y8
G1 F1500 X127.79 Y142.045 E248.98914
M204 S3000
M205 X10 Y10
G0 F3000 X127.79 Y141.253
M204 S1800
M205 X8 Y8
G1 F1500 X82.208 Y95.672 E251.99076
M204 S3000
M205 X10 Y10
G0 F3000 X82.208 Y94.88
M204 S1800
M205 X8 Y8
G1 F1500 X127.79 Y140.461 E254.99238
M204 S3000
M205 X10 Y10
G0 F3000 X127.79 Y139.669
M204 S1800
M205 X8 Y8
G1 F1500 X82.208 Y94.088 E257.994
M204 S3000
M205 X10 Y10
G0 F3000 X82.208 Y93.296
M204 S1800
M205 X8 Y8
G1 F1500 X127.79 Y138.877 E260.99562
M204 S3000
M205 X10 Y10
G0 F3000 X127.79 Y138.085
M204 S1800
M205 X8 Y8
G1 F1500 X82.208 Y92.504 E263.99724
M204 S3000
M205 X10 Y10
G0 F3000 X82.208 Y91.712
M204 S1800
M205 X8 Y8
G1 F1500 X127.79 Y137.293 E266.99885
M204 S3000
M205 X10 Y10
G0 F3000 X127.79 Y136.502
M204 S1800
M205 X8 Y8
G1 F1500 X108.498 Y117.21 E268.26927
M204 S3000
M205 X10 Y10
G0 F3000 X109.29 Y117.21
M204 S1800
M205 X8 Y8
G1 F1500 X127.79 Y135.71 E269.48752
M204 S3000
M205 X10 Y10
G0 F3000 X127.79 Y134.918
M204 S1800
M205 X8 Y8
G1 F1500 X110.082 Y117.21 E270.65362
M204 S3000
M205 X10 Y10
G0 F3000 X110.874 Y117.21
M204 S1800
M205 X8 Y8
G1 F1500 X127.79 Y134.126 E271.76757
M204 S3000
M205 X10 Y10
G0 F3000 X127.79 Y133.334
M204 S1800
M205 X8 Y8
G1 F1500 X111.666 Y117.21 E272.82936
M204 S3000
M205 X10 Y10
G0 F3000 X112.458 Y117.21
M204 S1800
M205 X8 Y8
G1 F1500 X127.79 Y132.542 E273.839
M204 S3000
M205 X10 Y10
G0 F3000 X127.79 Y131.75
M204 S1800
M205 X8 Y8
G1 F1500 X113.25 Y117.21 E274.79649
M204 S3000
M205 X10 Y10
