;FLAVOR:Marlin
;TIME:14925
;Filament used: 15.9815m
;Layer height: 0.2
;MINX:53.04
;MINY:23.04
;MINZ:0.2
;MAXX:156.96
;MAXY:186.96
;MAXZ:9.8
;Generated with Cura_SteamEngine 4.9.0
M140 S70
M105
M190 S70
M104 S215
M105
M109 S215
M82 ;absolute extrusion mode
G21 ;metric values
G90 ;absolute positioning
M82 ;set extruder to absolute mode
M107 ;start with the fan off
G28 X0 Y0 ;move X/Y to min endstops
G28 Z0 ;move Z to min endstops
G1 Z15.0 F100 ;move the platform down 15mm
G92 E0 ;zero the extruded length
G1 F200 E3 ;extrude 3mm of feed stock
G92 E0 ;zero the extruded length again
G1 F100
G0 Y20 F100
M117 Printing...
G5
G92 E0
G92 E0
G1 F2400 E-4
;LAYER_COUNT:49
;LAYER:0
M107
M204 S3000
M205 X10 Y10
G1 F600 Z0.275
G0 F3000 X53.389 Y34.047 Z0.275
M204 S1800
M205 X8 Y8
;TYPE:SKIRT
G1 F600 Z0.2
G1 F2400 E0.03326
G1 X53.778 Y33.614 E0.06036
G1 X54.084 Y33.364 E0.07876
G1 X54.435 Y33.181 E0.0972
G1 X54.815 Y33.071 E0.11562
G1 X55.164 Y33.04 E0.13193
G1 X63.04 Y33.04 E0.49867
G1 X63.04 Y25.164 E0.86541
G1 X63.08 Y24.771 E0.8838
G1 X63.198 Y24.393 E0.90224
G1 X63.389 Y24.047 E0.92065
G1 X63.778 Y23.614 E0.94775
G1 X64.084 Y23.364 E0.96615
G1 X64.435 Y23.181 E0.98458
G1 X64.815 Y23.071 E1.003
G1 X65.164 Y23.04 E1.01932
G1 X154.836 Y23.04 E5.19482
G1 X155.229 Y23.08 E5.21322
G1 X155.607 Y23.198 E5.23165
G1 X155.953 Y23.389 E5.25006
G1 X156.386 Y23.778 E5.27716
G1 X156.636 Y24.084 E5.29556
G1 X156.819 Y24.435 E5.31399
G1 X156.929 Y24.815 E5.33241
G1 X156.96 Y25.164 E5.34873
G1 X156.96 Y184.836 E12.78373
G1 X156.92 Y185.229 E12.80212
G1 X156.802 Y185.607 E12.82056
G1 X156.611 Y185.953 E12.83896
G1 X156.222 Y186.386 E12.86607
G1 X155.916 Y186.636 E12.88446
G1 X155.565 Y186.819 E12.9029
G1 X155.185 Y186.929 E12.92132
G1 X154.836 Y186.96 E12.93763
G1 X55.164 Y186.96 E17.57878
G1 X54.771 Y186.92 E17.59717
G1 X54.393 Y186.802 E17.61561
G1 X54.047 Y186.611 E17.63401
G1 X53.614 Y186.222 E17.66112
G1 X53.364 Y185.916 E17.67952
G1 X53.181 Y185.565 E17.69795
G1 X53.071 Y185.185 E17.71637
G1 X53.04 Y184.836 E17.73269
G1 X53.04 Y35.164 E24.70204
G1 X53.08 Y34.771 E24.72044
G1 X53.198 Y34.393 E24.73887
G1 X53.389 Y34.047 E24.75728
M204 S3000
M205 X10 Y10
G0 F3000 X53.757 Y34.52
M204 S1800
M205 X8 Y8
G1 F2400 X54.174 Y34.01 E24.78795
G1 X54.437 Y33.804 E24.80351
G1 X54.741 Y33.665 E24.81907
G1 X55.164 Y33.6 E24.839
G1 X63.6 Y33.6 E25.23182
G1 X63.6 Y25.164 E25.62463
G1 X63.64 Y24.832 E25.6402
G1 X63.757 Y24.52 E25.65572
G1 X64.174 Y24.01 E25.68639
G1 X64.437 Y23.804 E25.70195
G1 X64.741 Y23.665 E25.71752
G1 X65.164 Y23.6 E25.73744
G1 X154.836 Y23.6 E29.91295
G1 X155.168 Y23.64 E29.92852
G1 X155.48 Y23.757 E29.94403
G1 X155.99 Y24.174 E29.97471
G1 X156.196 Y24.437 E29.99027
G1 X156.335 Y24.741 E30.00583
G1 X156.4 Y25.164 E30.02576
G1 X156.4 Y184.836 E37.46076
G1 X156.36 Y185.168 E37.47633
G1 X156.243 Y185.48 E37.49184
G1 X155.826 Y185.99 E37.52252
G1 X155.563 Y186.196 E37.53807
G1 X155.259 Y186.335 E37.55364
G1 X154.836 Y186.4 E37.57357
G1 X55.164 Y186.4 E42.21471
G1 X54.832 Y186.36 E42.23028
G1 X54.52 Y186.243 E42.2458
G1 X54.01 Y185.826 E42.27648
G1 X53.804 Y185.563 E42.29203
G1 X53.665 Y185.259 E42.3076
G1 X53.6 Y184.836 E42.32752
G1 X53.6 Y35.164 E49.29688
G1 X53.64 Y34.832 E49.31245
G1 X53.757 Y34.52 E49.32797
M204 S3000
M205 X10 Y10
G0 F3000 X54.406 Y34.57
M204 S1800
M205 X8 Y8
G1 F2400 X54.779 Y34.254 E49.35073
G1 X55.164 Y34.16 E49.36918
G1 X64.16 Y34.16 E49.78808
G1 X64.16 Y25.164 E50.20697
G1 X64.2 Y24.909 E50.21899
G1 X64.406 Y24.57 E50.23746
G1 X64.779 Y24.254 E50.26022
G1 X65.164 Y24.16 E50.27867
G1 X154.836 Y24.16 E54.45418
G1 X155.091 Y24.2 E54.4662
G1 X155.43 Y24.406 E54.48467
G1 X155.746 Y24.779 E54.50743
G1 X155.84 Y25.164 E54.52589
G1 X155.84 Y184.836 E61.96088
G1 X155.8 Y185.091 E61.9729
G1 X155.594 Y185.43 E61.99137
G1 X155.221 Y185.746 E62.01414
G1 X154.836 Y185.84 E62.03259
G1 X55.164 Y185.84 E66.67374
G1 X54.909 Y185.8 E66.68576
G1 X54.57 Y185.594 E66.70423
G1 X54.254 Y185.221 E66.72699
G1 X54.16 Y184.836 E66.74544
G1 X54.16 Y35.164 E73.7148
G1 X54.2 Y34.909 E73.72682
G1 X54.406 Y34.57 E73.74529
M204 S3000
M205 X10 Y10
G0 F3000 X54.802 Y34.966
M204 S1800
M205 X8 Y8
G1 F2400 X54.966 Y34.802 E73.75609
G1 X55.164 Y34.72 E73.76607
G1 X64.72 Y34.72 E74.21104
G1 X64.72 Y25.164 E74.656
G1 X64.802 Y24.966 E74.66598
G1 X64.966 Y24.802 E74.67678
G1 X65.164 Y24.72 E74.68676
G1 X154.836 Y24.72 E78.86226
G1 X155.034 Y24.802 E78.87224
G1 X155.198 Y24.966 E78.88304
G1 X155.28 Y25.164 E78.89302
G1 X155.28 Y184.836 E86.32802
G1 X155.198 Y185.034 E86.338
G1 X155.034 Y185.198 E86.3488
G1 X154.836 Y185.28 E86.35878
G1 X55.164 Y185.28 E90.99992
G1 X54.966 Y185.198 E91.0099
G1 X54.802 Y185.034 E91.0207
G1 X54.72 Y184.836 E91.03068
G1 X54.72 Y35.164 E98.00004
G1 X54.802 Y34.966 E98.01002
M204 S3000
M205 X10 Y10
G1 F2400 E94.01002
;MESH:demofield2mx_10x16.stl
G0 F3000 X54.89 Y34.339
G0 X64.347 Y34.347
G0 X65.86 Y34.966
G0 X65.28 Y35.28
M204 S1800
M205 X8 Y8
;TYPE:WALL-OUTER
G1 F2400 E98.04328
G1 F1500 X65.28 Y25.28 E98.50892
G1 X154.72 Y25.28 E102.67362
G1 X154.72 Y184.72 E110.09781
G1 X55.28 Y184.72 E114.72816
G1 X55.28 Y35.28 E121.68671
G1 X65.28 Y35.28 E122.15235
M204 S3000
M205 X10 Y10
G0 F3000 X65.28 Y35.08
G0 X65.94 Y35.08
G0 X94.06 Y55.28
G0 X94.72 Y55.28
M204 S1800
M205 X8 Y8
G1 F1500 X105.28 Y55.28 E122.64407
G1 X105.28 Y44.72 E123.13579
G1 X94.72 Y44.72 E123.6275
G1 X94.72 Y55.28 E124.11922
M204 S3000
M205 X10 Y10
G0 F3000 X94.92 Y55.28
G0 X94.16 Y55.84
M204 S1800
M205 X8 Y8
;TYPE:WALL-INNER
G1 F1500 X105.84 Y55.84 E124.66309
G1 X105.84 Y44.16 E125.20696
G1 X94.16 Y44.16 E125.75083
G1 X94.16 Y55.84 E126.2947
M204 S3000
M205 X10 Y10
G0 F3000 X94.09 Y55.91
G0 X65.91 Y35.91
G0 X65.84 Y35.84
M204 S1800
M205 X8 Y8
G1 F1500 X65.84 Y25.84 E126.76034
G1 X154.16 Y25.84 E130.87289
G1 X154.16 Y184.16 E138.24493
G1 X55.84 Y184.16 E142.82313
G1 X55.84 Y35.84 E149.72953
G1 X65.84 Y35.84 E150.19517
M204 S3000
M205 X10 Y10
G0 F3000 X66.4 Y36.4
M204 S1800
M205 X8 Y8
G1 F1500 X66.4 Y26.4 E150.66081
G1 X153.6 Y26.4 E154.72121
G1 X153.6 Y183.6 E162.0411
G1 X56.4 Y183.6 E166.56714
G1 X56.4 Y36.4 E173.42139
G1 X66.4 Y36.4 E173.88703
M204 S3000
M205 X10 Y10
G0 F3000 X93.6 Y56.4
M204 S1800
M205 X8 Y8
G1 F1500 X106.4 Y56.4 E174.48305
G1 X106.4 Y43.6 E175.07907
G1 X93.6 Y43.6 E175.67509
G1 X93.6 Y56.4 E176.27111
M204 S3000
M205 X10 Y10
G0 F3000 X93.05 Y56.95
M204 S1800
M205 X8 Y8
;TYPE:SKIN
G1 F1500 X106.95 Y56.95 E176.91836
G1 X106.95 Y43.05 E177.5656
G1 X93.05 Y43.05 E178.21284
G1 X93.05 Y56.95 E178.86008
M204 S3000
M205 X10 Y10
G0 F3000 X66.95 Y36.95
M204 S1800
M205 X8 Y8
G1 F1500 X66.95 Y26.95 E179.32572
G1 X153.05 Y26.95 E183.3349
G1 X153.05 Y183.05 E190.60357
G1 X56.95 Y183.05 E195.07839
G1 X56.95 Y36.95 E201.88142
G1 X66.95 Y36.95 E202.34706
M204 S3000
M205 X10 Y10
G0 F3000 X152.789 Y27.659
M204 S1800
M205 X8 Y8
G1 F1500 X152.339 Y27.21 E202.37666
M204 S3000
M205 X10 Y10
G0 F3000 X151.547 Y27.21
M204 S1800
M205 X8 Y8
G1 F1500 X152.789 Y28.451 E202.45841
M204 S3000
M205 X10 Y10
G0 F3000 X152.789 Y29.243
M204 S1800
M205 X8 Y8
G1 F1500 X150.755 Y27.21 E202.59232
M204 S3000
M205 X10 Y10
G0 F3000 X149.963 Y27.21
M204 S1800
M205 X8 Y8
G1 F1500 X152.789 Y30.035 E202.77839
M204 S3000
M205 X10 Y10
G0 F3000 X152.789 Y30.827
M204 S1800
M205 X8 Y8
G1 F1500 X149.171 Y27.21 E203.01661
M204 S3000
M205 X10 Y10
G0 F3000 X148.379 Y27.21
M204 S1800
M205 X8 Y8
G1 F1500 X152.789 Y31.619 E203.30698
M204 S3000
M205 X10 Y10
G0 F3000 X152.789 Y32.411
M204 S1800
M205 X8 Y8
G1 F1500 X147.588 Y27.21 E203.64947
M204 S3000
M205 X10 Y10
G0 F3000 X146.796 Y27.21
M204 S1800
M205 X8 Y8
G1 F1500 X152.789 Y33.203 E204.04412
M204 S3000
M205 X10 Y10
G0 F3000 X152.789 Y33.995
M204 S1800
M205 X8 Y8
G1 F1500 X146.004 Y27.21 E204.49093
M204 S3000
M205 X10 Y10
G0 F3000 X145.212 Y27.21
M204 S1800
M205 X8 Y8
G1 F1500 X152.789 Y34.787 E204.98989
M204 S3000
M205 X10 Y10
G0 F3000 X152.789 Y35.579
M204 S1800
M205 X8 Y8
G1 F1500 X144.42 Y27.21 E205.541
M204 S3000
M205 X10 Y10
G0 F3000 X143.628 Y27.21
M204 S1800
M205 X8 Y8
G1 F1500 X152.789 Y36.371 E206.14427
M204 S3000
M205 X10 Y10
G0 F3000 X152.789 Y37.163
M204 S1800
M205 X8 Y8
G1 F1500 X142.836 Y27.21 E206.79969
M204 S3000
M205 X10 Y10
G0 F3000 X142.044 Y27.21
M204 S1800
M205 X8 Y8
G1 F1500 X152.789 Y37.955 E207.50727
M204 S3000
M205 X10 Y10
G0 F3000 X152.789 Y38.747
M204 S1800
M205 X8 Y8
G1 F1500 X141.252 Y27.21 E208.267
M204 S3000
M205 X10 Y10
G0 F3000 X140.46 Y27.21
M204 S1800
M205 X8 Y8
G1 F1500 X152.789 Y39.539 E209.07888
M204 S3000
M205 X10 Y10
G0 F3000 X152.789 Y40.331
M204 S1800
M205 X8 Y8
G1 F1500 X139.668 Y27.21 E209.94292
M204 S3000
M205 X10 Y10
G0 F3000 X138.876 Y27.21
M204 S1800
M205 X8 Y8
G1 F1500 X152.789 Y41.123 E210.85912
M204 S3000
M205 X10 Y10
G0 F3000 X152.789 Y41.915
M204 S1800
M205 X8 Y8
G1 F1500 X138.084 Y27.21 E211.82747
M204 S3000
M205 X10 Y10
G0 F3000 X137.292 Y27.21
M204 S1800
M205 X8 Y8
G1 F1500 X152.789 Y42.707 E212.84797
M204 S3000
M205 X10 Y10
G0 F3000 X152.789 Y43.499
M204 S1800
M205 X8 Y8
G1 F1500 X136.5 Y27.21 E213.92063
M204 S3000
M205 X10 Y10
G0 F3000 X135.708 Y27.21
M204 S1800
M205 X8 Y8
G1 F1500 X152.789 Y44.291 E215.04544
M204 S3000
M205 X10 Y10
G0 F3000 X152.789 Y45.083
M204 S1800
M205 X8 Y8
G1 F1500 X134.916 Y27.21 E216.22241
M204 S3000
M205 X10 Y10
G0 F3000 X134.124 Y27.21
M204 S1800
M205 X8 Y8
G1 F1500 X152.789 Y45.874 E217.4515
M204 S3000
M205 X10 Y10
G0 F3000 X152.789 Y46.666
M204 S1800
M205 X8 Y8
G1 F1500 X133.332 Y27.21 E218.73274
M204 S3000
M205 X10 Y10
G0 F3000 X132.54 Y27.21
M204 S1800
M205 X8 Y8
G1 F1500 X152.789 Y47.458 E220.06614
M204 S3000
M205 X10 Y10
G0 F3000 X152.789 Y48.25
M204 S1800
M205 X8 Y8
G1 F1500 X131.748 Y27.21 E221.45169
M204 S3000
M205 X10 Y10
G0 F3000 X130.956 Y27.21
M204 S1800
M205 X8 Y8
G1 F1500 X152.789 Y49.042 E222.8894
M204 S3000
M205 X10 Y10
G0 F3000 X152.789 Y49.834
M204 S1800
M205 X8 Y8
G1 F1500 X130.164 Y27.21 E224.37926
M204 S3000
M205 X10 Y10
G0 F3000 X129.372 Y27.21
M204 S1800
M205 X8 Y8
G1 F1500 X152.789 Y50.626 E225.92128
M204 S3000
M205 X10 Y10
G0 F3000 X152.789 Y51.418
M204 S1800
M205 X8 Y8
G1 F1500 X128.581 Y27.21 E227.51542
M204 S3000
M205 X10 Y10
G0 F3000 X127.789 Y27.21
M204 S1800
M205 X8 Y8
G1 F1500 X152.789 Y52.21 E229.16171
M204 S3000
M205 X10 Y10
G0 F3000 X152.789 Y53.002
M204 S1800
M205 X8 Y8
G1 F1500 X126.997 Y27.21 E230.86016
M204 S3000
M205 X10 Y10
G0 F3000 X126.205 Y27.21
M204 S1800
M205 X8 Y8
G1 F1500 X152.789 Y53.794 E232.61076
M204 S3000
M205 X10 Y10
G0 F3000 X152.789 Y54.586
M204 S1800
M205 X8 Y8
G1 F1500 X125.413 Y27.21 E234.41352
M204 S3000
M205 X10 Y10
G0 F3000 X124.621 Y27.21
M204 S1800
M205 X8 Y8
G1 F1500 X152.789 Y55.378 E236.26843
M204 S3000
M205 X10 Y10
G0 F3000 X152.789 Y56.17
M204 S1800
M205 X8 Y8
G1 F1500 X123.829 Y27.21 E238.17549
M204 S3000
M205 X10 Y10
G0 F3000 X123.037 Y27.21
M204 S1800
M205 X8 Y8
G1 F1500 X152.789 Y56.962 E240.13471
M204 S3000
M205 X10 Y10
G0 F3000 X152.789 Y57.754
M204 S1800
M205 X8 Y8
G1 F1500 X122.245 Y27.21 E242.14609
M204 S3000
M205 X10 Y10
G0 F3000 X121.453 Y27.21
M204 S1800
M205 X8 Y8
G1 F1500 X152.789 Y58.546 E244.20962
M204 S3000
M205 X10 Y10
G0 F3000 X152.789 Y59.338
M204 S1800
M205 X8 Y8
G1 F1500 X120.661 Y27.21 E246.3253
M204 S3000
M205 X10 Y10
G0 F3000 X119.869 Y27.21
M204 S1800
M205 X8 Y8
G1 F1500 X152.789 Y60.13 E248.49314
M204 S3000
M205 X10 Y10
G0 F3000 X152.789 Y60.922
M204 S1800
M205 X8 Y8
G1 F1500 X119.077 Y27.21 E250.71313
M204 S3000
M205 X10 Y10
G0 F3000 X118.285 Y27.21
M204 S1800
M205 X8 Y8
G1 F1500 X152.789 Y61.714 E252.98528
M204 S3000
M205 X10 Y10
G0 F3000 X152.789 Y62.506
M204 S1800
M205 X8 Y8
G1 F1500 X117.493 Y27.21 E255.30958
M204 S3000
M205 X10 Y10
G0 F3000 X116.701 Y27.21
M204 S1800
M205 X8 Y8
G1 F1500 X152.789 Y63.298 E257.68604
M204 S3000
M205 X10 Y10
G0 F3000 X152.789 Y64.09
M204 S1800
M205 X8 Y8
G1 F1500 X115.909 Y27.21 E260.11465
M204 S3000
M205 X10 Y10
G0 F3000 X115.117 Y27.21
M204 S1800
M205 X8 Y8
G1 F1500 X152.789 Y64.881 E262.59538
M204 S3000
M205 X10 Y10
G0 F3000 X152.789 Y65.673
M204 S1800
M205 X8 Y8
G1 F1500 X114.325 Y27.21 E265.12827
M204 S3000
M205 X10 Y10
G0 F3000 X113.533 Y27.21
M204 S1800
M205 X8 Y8
G1 F1500 X152.789 Y66.465 E267.71331
M204 S3000
M205 X10 Y10
G0 F3000 X152.789 Y67.257
M204 S1800
M205 X8 Y8
G1 F1500 X112.741 Y27.21 E270.3505
M204 S3000
M205 X10 Y10
G0 F3000 X111.949 Y27.21
M204 S1800
M205 X8 Y8
G1 F1500 X152.789 Y68.049 E273.03986
M204 S3000
M205 X10 Y10
G0 F3000 X152.789 Y68.841
M204 S1800
M205 X8 Y8
G1 F1500 X111.157 Y27.21 E275.78136
M204 S3000
M205 X10 Y10
G0 F3000 X110.365 Y27.21
M204 S1800
M205 X8 Y8
G1 F1500 X152.789 Y69.633 E278.57502
M204 S3000
M205 X10 Y10
G0 F3000 X152.789 Y70.425
M204 S1800
M205 X8 Y8
G1 F1500 X109.573 Y27.21 E281.42084
M204 S3000
M205 X10 Y10
G0 F3000 X108.782 Y27.21
M204 S1800
M205 X8 Y8
G1 F1500 X152.789 Y71.217 E284.31877
M204 S3000
M205 X10 Y10
G0 F3000 X152.789 Y72.009
M204 S1800
M205 X8 Y8
G1 F1500 X107.99 Y27.21 E287.26886
M204 S3000
M205 X10 Y10
G0 F3000 X107.198 Y27.21
M204 S1800
M205 X8 Y8
G1 F1500 X152.789 Y72.801 E290.27111
M204 S3000
M205 X10 Y10
G0 F3000 X152.789 Y73.593
M204 S1800
M205 X8 Y8
G1 F1500 X106.406 Y27.21 E293.32551
M204 S3000
M205 X10 Y10
G0 F3000 X105.614 Y27.21
M204 S1800
M205 X8 Y8
G1 F1500 X152.789 Y74.385 E296.43206
M204 S3000
M205 X10 Y10
G0 F3000 X152.789 Y75.177
M204 S1800
M205 X8 Y8
G1 F1500 X104.822 Y27.21 E299.59077
M204 S3000
M205 X10 Y10
G0 F3000 X104.03 Y27.21
M204 S1800
M205 X8 Y8
G1 F1500 X152.789 Y75.969 E302.80163
M204 S3000
M205 X10 Y10
G0 F3000 X152.789 Y76.761
M204 S1800
M205 X8 Y8
G1 F1500 X103.238 Y27.21 E306.06465
M204 S3000
M205 X10 Y10
G0 F3000 X102.446 Y27.21
M204 S1800
M205 X8 Y8
G1 F1500 X152.789 Y77.553 E309.37982
M204 S3000
M205 X10 Y10
G0 F3000 X152.789 Y78.345
M204 S1800
M205 X8 Y8
G1 F1500 X101.654 Y27.21 E312.74715
M204 S3000
M205 X10 Y10
G0 F3000 X100.862 Y27.21
M204 S1800
M205 X8 Y8
G1 F1500 X152.789 Y79.137 E316.16663
M204 S3000
M205 X10 Y10
G0 F3000 X152.789 Y79.929
M204 S1800
M205 X8 Y8
G1 F1500 X100.07 Y27.21 E319.63827
M204 S3000
M205 X10 Y10
G0 F3000 X99.278 Y27.21
M204 S1800
M205 X8 Y8
G1 F1500 X152.789 Y80.721 E323.16206
M204 S3000
M205 X10 Y10
G0 F3000 X152.789 Y81.513
M204 S1800
M205 X8 Y8
G1 F1500 X98.486 Y27.21 E326.73801
M204 S3000
M205 X10 Y10
G0 F3000 X97.694 Y27.21
M204 S1800
M205 X8 Y8
G1 F1500 X152.789 Y82.305 E330.3661
M204 S3000
M205 X10 Y10
G0 F3000 X152.789 Y83.097
M204 S1800
M205 X8 Y8
G1 F1500 X96.902 Y27.21 E334.04636
M204 S3000
M205 X10 Y10
G0 F3000 X96.11 Y27.21
M204 S1800
M205 X8 Y8
G1 F1500 X152.789 Y83.889 E337.77877
M204 S3000
M205 X10 Y10
G0 F3000 X152.789 Y84.68
M204 S1800
M205 X8 Y8
G1 F1500 X95.318 Y27.21 E341.5633
M204 S3000
M205 X10 Y10
G0 F3000 X94.526 Y27.21
M204 S1800
M205 X8 Y8
G1 F1500 X152.789 Y85.472 E345.39998
M204 S3000
M205 X10 Y10
G0 F3000 X152.789 Y86.264
M204 S1800
M205 X8 Y8
G1 F1500 X93.734 Y27.21 E349.28882
M204 S3000
M205 X10 Y10
G0 F3000 X92.942 Y27.21
M204 S1800
M205 X8 Y8
G1 F1500 X152.789 Y87.056 E353.22982
M204 S3000
M205 X10 Y10
G0 F3000 X152.789 Y87.848
M204 S1800
M205 X8 Y8
G1 F1500 X92.15 Y27.21 E357.22297
M204 S3000
M205 X10 Y10
G0 F3000 X91.358 Y27.21
M204 S1800
M205 X8 Y8
G1 F1500 X106.938 Y42.789 E358.2489
M204 S3000
M205 X10 Y10
G0 F3000 X107.209 Y43.06
M204 S1800
M205 X8 Y8
G1 F1500 X152.789 Y88.64 E361.25042
M204 S3000
M205 X10 Y10
G0 F3000 X152.789 Y89.432
M204 S1800
M205 X8 Y8
G1 F1500 X107.209 Y43.852 E364.25194
M204 S3000
M205 X10 Y10
G0 F3000 X107.209 Y44.644
M204 S1800
M205 X8 Y8
G1 F1500 X152.789 Y90.224 E367.25347
M204 S3000
M205 X10 Y10
G0 F3000 X152.789 Y91.016
M204 S1800
M205 X8 Y8
G1 F1500 X107.209 Y45.436 E370.25499
M204 S3000
M205 X10 Y10
G0 F3000 X107.209 Y46.228
M204 S1800
M205 X8 Y8
G1 F1500 X152.789 Y91.808 E373.25651
M204 S3000
M205 X10 Y10
G0 F3000 X152.789 Y92.6
M204 S1800
M205 X8 Y8
G1 F1500 X107.209 Y47.02 E376.25803
M204 S3000
M205 X10 Y10
G0 F3000 X107.209 Y47.812
M204 S1800
M205 X8 Y8
G1 F1500 X152.789 Y93.392 E379.25955
M204 S3000
M205 X10 Y10
G0 F3000 X152.789 Y94.184
M204 S1800
M205 X8 Y8
G1 F1500 X107.209 Y48.604 E382.26107
M204 S3000
