;FLAVOR:Marlin
;TIME:2102
;Filament used: 1.86936m
;Layer height: 0.2
;MINX:78.04
;MINY:88.04
;MINZ:0.2
;MAXX:131.96
;MAXY:121.96
;MAXZ:60
;Generated with Cura_SteamEngine 4.9.0
M140 S70
M105
M190 S70
M104 S215
M105
M109 S215
M82 ;absolute extrusion mode
G21 ;metric values
G90 ;absolute positioning
M82 ;set extruder to absolute mode
M107 ;start with the fan off
G28 X0 Y0 ;move X/Y to min endstops
G28 Z0 ;move Z to min endstops
G1 Z15.0 F100 ;move the platform down 15mm
G92 E0 ;zero the extruded length
G1 F200 E3 ;extrude 3mm of feed stock
G92 E0 ;zero the extruded length again
G1 F100
G0 Y20 F100
M117 Printing...
G5
G92 E0
G92 E0
G1 F2400 E-4
;LAYER_COUNT:300
;LAYER:0
M107
M204 S3000
M205 X10 Y10
G1 F600 Z0.275
G0 F3000 X78.778 Y88.614 Z0.275
M204 S1800
M205 X8 Y8
;TYPE:SKIRT
G1 F600 Z0.2
G1 F2400 E0.03326
G1 X79.084 Y88.364 E0.05166
G1 X79.435 Y88.181 E0.07009
G1 X79.815 Y88.071 E0.08851
G1 X80.164 Y88.04 E0.10483
G1 X99.836 Y88.04 E1.02084
G1 X100.229 Y88.08 E1.03923
G1 X100.607 Y88.198 E1.05767
G1 X100.953 Y88.389 E1.07607
G1 X101.386 Y88.778 E1.10318
G1 X101.636 Y89.084 E1.12158
G1 X101.819 Y89.435 E1.14001
G1 X101.929 Y89.815 E1.15843
G1 X101.96 Y90.164 E1.17475
G1 X101.96 Y99.836 E1.62511
G1 X101.92 Y100.229 E1.64351
G1 X101.802 Y100.607 E1.66195
G1 X101.611 Y100.953 E1.68035
G1 X101.222 Y101.386 E1.70745
G1 X100.916 Y101.636 E1.72585
G1 X100.565 Y101.819 E1.74429
G1 X100.185 Y101.929 E1.76271
G1 X99.836 Y101.96 E1.77902
G1 X80.164 Y101.96 E2.69503
G1 X79.771 Y101.92 E2.71343
G1 X79.393 Y101.802 E2.73187
G1 X79.047 Y101.611 E2.75027
G1 X78.614 Y101.222 E2.77737
G1 X78.364 Y100.916 E2.79577
G1 X78.181 Y100.565 E2.8142
G1 X78.071 Y100.185 E2.83262
G1 X78.04 Y99.836 E2.84894
G1 X78.04 Y90.164 E3.29931
G1 X78.08 Y89.771 E3.3177
G1 X78.198 Y89.393 E3.33614
G1 X78.389 Y89.047 E3.35454
G1 X78.778 Y88.614 E3.38165
M204 S3000
M205 X10 Y10
G0 F3000 X79.174 Y89.01
M204 S1800
M205 X8 Y8
G1 F2400 X79.437 Y88.804 E3.3972
G1 X79.741 Y88.665 E3.41277
G1 X80.164 Y88.6 E3.4327
G1 X99.836 Y88.6 E4.34871
G1 X100.168 Y88.64 E4.36428
G1 X100.48 Y88.757 E4.37979
G1 X100.99 Y89.174 E4.41047
G1 X101.196 Y89.437 E4.42603
G1 X101.335 Y89.741 E4.44159
G1 X101.4 Y90.164 E4.46152
G1 X101.4 Y99.836 E4.91189
G1 X101.36 Y100.168 E4.92746
G1 X101.243 Y100.48 E4.94297
G1 X100.826 Y100.99 E4.97365
G1 X100.563 Y101.196 E4.98921
G1 X100.259 Y101.335 E5.00477
G1 X99.836 Y101.4 E5.0247
G1 X80.164 Y101.4 E5.94071
G1 X79.832 Y101.36 E5.95628
G1 X79.52 Y101.243 E5.9718
G1 X79.01 Y100.826 E6.00247
G1 X78.804 Y100.563 E6.01803
G1 X78.665 Y100.259 E6.03359
G1 X78.6 Y99.836 E6.05352
G1 X78.6 Y90.164 E6.50389
G1 X78.64 Y89.832 E6.51946
G1 X78.757 Y89.52 E6.53498
G1 X79.174 Y89.01 E6.56565
M204 S3000
M205 X10 Y10
G0 F3000 X79.406 Y89.57
M204 S1800
M205 X8 Y8
G1 F2400 X79.779 Y89.254 E6.58842
G1 X80.164 Y89.16 E6.60687
G1 X99.836 Y89.16 E7.52288
G1 X100.091 Y89.2 E7.5349
G1 X100.43 Y89.406 E7.55337
G1 X100.746 Y89.779 E7.57613
G1 X100.84 Y90.164 E7.59459
G1 X100.84 Y99.836 E8.04496
G1 X100.8 Y100.091 E8.05698
G1 X100.594 Y100.43 E8.07545
G1 X100.221 Y100.746 E8.09821
G1 X99.836 Y100.84 E8.11666
G1 X80.164 Y100.84 E9.03267
G1 X79.909 Y100.8 E9.04469
G1 X79.57 Y100.594 E9.06316
G1 X79.254 Y100.221 E9.08593
G1 X79.16 Y99.836 E9.10438
G1 X79.16 Y90.164 E9.55475
G1 X79.2 Y89.909 E9.56677
G1 X79.406 Y89.57 E9.58524
M204 S3000
M205 X10 Y10
G0 F3000 X79.966 Y89.802
M204 S1800
M205 X8 Y8
G1 F2400 X80.164 Y89.72 E9.59522
G1 X99.836 Y89.72 E10.51123
G1 X100.034 Y89.802 E10.52121
G1 X100.198 Y89.966 E10.53201
G1 X100.28 Y90.164 E10.54199
G1 X100.28 Y99.836 E10.99236
G1 X100.198 Y100.034 E11.00234
G1 X100.034 Y100.198 E11.01314
G1 X99.836 Y100.28 E11.02312
G1 X80.164 Y100.28 E11.93913
G1 X79.966 Y100.198 E11.94911
G1 X79.802 Y100.034 E11.9599
G1 X79.72 Y99.836 E11.96988
G1 X79.72 Y90.164 E12.42025
G1 X79.802 Y89.966 E12.43023
G1 X79.966 Y89.802 E12.44103
M204 S3000
M205 X10 Y10
G1 F2400 E8.44103
G0 F3000 X79.694 Y89.53
G0 X79.339 Y100.11
G0 X80.164 Y108.04
M204 S1800
M205 X8 Y8
G1 F2400 E12.47429
G1 X89.836 Y108.04 E12.92466
G1 X90.229 Y108.08 E12.94305
G1 X90.607 Y108.198 E12.96149
G1 X90.953 Y108.389 E12.9799
G1 X91.386 Y108.778 E13.007
G1 X91.636 Y109.084 E13.0254
G1 X91.819 Y109.435 E13.04383
G1 X91.929 Y109.815 E13.06225
G1 X91.96 Y110.164 E13.07857
G1 X91.96 Y119.836 E13.52894
G1 X91.92 Y120.229 E13.54733
G1 X91.802 Y120.607 E13.56577
G1 X91.611 Y120.953 E13.58417
G1 X91.222 Y121.386 E13.61128
G1 X90.916 Y121.636 E13.62968
G1 X90.565 Y121.819 E13.64811
G1 X90.185 Y121.929 E13.66653
G1 X89.836 Y121.96 E13.68284
G1 X80.164 Y121.96 E14.13321
G1 X79.771 Y121.92 E14.15161
G1 X79.393 Y121.802 E14.17005
G1 X79.047 Y121.611 E14.18845
G1 X78.614 Y121.222 E14.21555
G1 X78.364 Y120.916 E14.23395
G1 X78.181 Y120.565 E14.25238
G1 X78.071 Y120.185 E14.2708
G1 X78.04 Y119.836 E14.28712
G1 X78.04 Y110.164 E14.73749
G1 X78.08 Y109.771 E14.75588
G1 X78.198 Y109.393 E14.77432
G1 X78.389 Y109.047 E14.79272
G1 X78.778 Y108.614 E14.81983
G1 X79.084 Y108.364 E14.83823
G1 X79.435 Y108.181 E14.85666
G1 X79.815 Y108.071 E14.87508
G1 X80.164 Y108.04 E14.8914
M204 S3000
M205 X10 Y10
G0 F3000 X80.164 Y108.6
M204 S1800
M205 X8 Y8
G1 F2400 X89.836 Y108.6 E15.34176
G1 X90.168 Y108.64 E15.35734
G1 X90.48 Y108.757 E15.37285
G1 X90.99 Y109.174 E15.40353
G1 X91.196 Y109.437 E15.41908
G1 X91.335 Y109.741 E15.43465
G1 X91.4 Y110.164 E15.45458
G1 X91.4 Y119.836 E15.90494
G1 X91.36 Y120.168 E15.92052
G1 X91.243 Y120.48 E15.93603
G1 X90.826 Y120.99 E15.96671
G1 X90.563 Y121.196 E15.98226
G1 X90.259 Y121.335 E15.99783
G1 X89.836 Y121.4 E16.01776
G1 X80.164 Y121.4 E16.46812
G1 X79.832 Y121.36 E16.4837
G1 X79.52 Y121.243 E16.49921
G1 X79.01 Y120.826 E16.52989
G1 X78.804 Y120.563 E16.54544
G1 X78.665 Y120.259 E16.56101
G1 X78.6 Y119.836 E16.58094
G1 X78.6 Y110.164 E17.0313
G1 X78.64 Y109.832 E17.04688
G1 X78.757 Y109.52 E17.06239
G1 X79.174 Y109.01 E17.09307
G1 X79.437 Y108.804 E17.10862
G1 X79.741 Y108.665 E17.12419
G1 X80.164 Y108.6 E17.14412
M204 S3000
M205 X10 Y10
G0 F3000 X80.164 Y109.16
M204 S1800
M205 X8 Y8
G1 F2400 X89.836 Y109.16 E17.59448
G1 X90.091 Y109.2 E17.6065
G1 X90.43 Y109.406 E17.62498
G1 X90.746 Y109.779 E17.64774
G1 X90.84 Y110.164 E17.66619
G1 X90.84 Y119.836 E18.11656
G1 X90.8 Y120.091 E18.12858
G1 X90.594 Y120.43 E18.14705
G1 X90.221 Y120.746 E18.16981
G1 X89.836 Y120.84 E18.18827
G1 X80.164 Y120.84 E18.63864
G1 X79.909 Y120.8 E18.65066
G1 X79.57 Y120.594 E18.66913
G1 X79.254 Y120.221 E18.69189
G1 X79.16 Y119.836 E18.71035
G1 X79.16 Y110.164 E19.16071
G1 X79.2 Y109.909 E19.17273
G1 X79.406 Y109.57 E19.1912
G1 X79.779 Y109.254 E19.21397
G1 X80.164 Y109.16 E19.23242
M204 S3000
M205 X10 Y10
G0 F3000 X80.164 Y109.72
M204 S1800
M205 X8 Y8
G1 F2400 X89.836 Y109.72 E19.68279
G1 X90.034 Y109.802 E19.69277
G1 X90.198 Y109.966 E19.70357
G1 X90.28 Y110.164 E19.71355
G1 X90.28 Y119.836 E20.16392
G1 X90.198 Y120.034 E20.1739
G1 X90.034 Y120.198 E20.1847
G1 X89.836 Y120.28 E20.19467
G1 X80.164 Y120.28 E20.64504
G1 X79.966 Y120.198 E20.65502
G1 X79.802 Y120.034 E20.66582
G1 X79.72 Y119.836 E20.6758
G1 X79.72 Y110.164 E21.12617
G1 X79.802 Y109.966 E21.13615
G1 X79.966 Y109.802 E21.14695
G1 X80.164 Y109.72 E21.15693
M204 S3000
M205 X10 Y10
G1 F2400 E17.15693
G0 F3000 X80.164 Y109.335
G0 X100.11 Y100.661
G0 X118.04 Y90.164
M204 S1800
M205 X8 Y8
G1 F2400 E21.19019
G1 X118.08 Y89.771 E21.20858
G1 X118.198 Y89.393 E21.22702
G1 X118.389 Y89.047 E21.24542
G1 X118.778 Y88.614 E21.27253
G1 X119.084 Y88.364 E21.29093
G1 X119.435 Y88.181 E21.30936
G1 X119.815 Y88.071 E21.32778
G1 X120.164 Y88.04 E21.3441
G1 X129.836 Y88.04 E21.79446
G1 X130.229 Y88.08 E21.81286
G1 X130.607 Y88.198 E21.8313
G1 X130.953 Y88.389 E21.8497
G1 X131.386 Y88.778 E21.8768
G1 X131.636 Y89.084 E21.8952
G1 X131.819 Y89.435 E21.91364
G1 X131.929 Y89.815 E21.93206
G1 X131.96 Y90.164 E21.94837
G1 X131.96 Y99.836 E22.39874
G1 X131.92 Y100.229 E22.41713
G1 X131.802 Y100.607 E22.43557
G1 X131.611 Y100.953 E22.45398
G1 X131.222 Y101.386 E22.48108
G1 X130.916 Y101.636 E22.49948
G1 X130.565 Y101.819 E22.51791
G1 X130.185 Y101.929 E22.53633
G1 X129.836 Y101.96 E22.55265
G1 X120.164 Y101.96 E23.00302
G1 X119.771 Y101.92 E23.02141
G1 X119.393 Y101.802 E23.03985
G1 X119.047 Y101.611 E23.05825
G1 X118.614 Y101.222 E23.08536
G1 X118.364 Y100.916 E23.10376
G1 X118.181 Y100.565 E23.12219
G1 X118.071 Y100.185 E23.14061
G1 X118.04 Y99.836 E23.15692
G1 X118.04 Y90.164 E23.60729
M204 S3000
M205 X10 Y10
G0 F3000 X118.6 Y90.164
M204 S1800
M205 X8 Y8
G1 F2400 X118.64 Y89.832 E23.62286
G1 X118.757 Y89.52 E23.63838
G1 X119.174 Y89.01 E23.66905
G1 X119.437 Y88.804 E23.68461
G1 X119.741 Y88.665 E23.70018
G1 X120.164 Y88.6 E23.7201
G1 X129.836 Y88.6 E24.17047
G1 X130.168 Y88.64 E24.18604
G1 X130.48 Y88.757 E24.20156
G1 X130.99 Y89.174 E24.23223
G1 X131.196 Y89.437 E24.24779
G1 X131.335 Y89.741 E24.26336
G1 X131.4 Y90.164 E24.28328
G1 X131.4 Y99.836 E24.73365
G1 X131.36 Y100.168 E24.74922
G1 X131.243 Y100.48 E24.76474
G1 X130.826 Y100.99 E24.79541
G1 X130.563 Y101.196 E24.81097
G1 X130.259 Y101.335 E24.82654
G1 X129.836 Y101.4 E24.84646
G1 X120.164 Y101.4 E25.29683
G1 X119.832 Y101.36 E25.3124
G1 X119.52 Y101.243 E25.32792
G1 X119.01 Y100.826 E25.3586
G1 X118.804 Y100.563 E25.37415
G1 X118.665 Y100.259 E25.38972
G1 X118.6 Y99.836 E25.40964
G1 X118.6 Y90.164 E25.86001
M204 S3000
M205 X10 Y10
G0 F3000 X119.16 Y90.164
M204 S1800
M205 X8 Y8
G1 F2400 X119.2 Y89.909 E25.87203
G1 X119.406 Y89.57 E25.8905
G1 X119.779 Y89.254 E25.91327
G1 X120.164 Y89.16 E25.93172
G1 X129.836 Y89.16 E26.38209
G1 X130.091 Y89.2 E26.39411
G1 X130.43 Y89.406 E26.41258
G1 X130.746 Y89.779 E26.43534
G1 X130.84 Y90.164 E26.4538
G1 X130.84 Y99.836 E26.90417
G1 X130.8 Y100.091 E26.91618
G1 X130.594 Y100.43 E26.93466
G1 X130.221 Y100.746 E26.95742
G1 X129.836 Y100.84 E26.97587
G1 X120.164 Y100.84 E27.42624
G1 X119.909 Y100.8 E27.43826
G1 X119.57 Y100.594 E27.45673
G1 X119.254 Y100.221 E27.4795
G1 X119.16 Y99.836 E27.49795
G1 X119.16 Y90.164 E27.94832
M204 S3000
M205 X10 Y10
G0 F3000 X119.72 Y90.164
M204 S1800
M205 X8 Y8
G1 F2400 X119.802 Y89.966 E27.9583
G1 X119.966 Y89.802 E27.9691
G1 X120.164 Y89.72 E27.97908
G1 X129.836 Y89.72 E28.42944
G1 X130.034 Y89.802 E28.43942
G1 X130.198 Y89.966 E28.45022
G1 X130.28 Y90.164 E28.4602
G1 X130.28 Y99.836 E28.91057
G1 X130.198 Y100.034 E28.92055
G1 X130.034 Y100.198 E28.93135
G1 X129.836 Y100.28 E28.94133
G1 X120.164 Y100.28 E29.3917
G1 X119.966 Y100.198 E29.40168
G1 X119.802 Y100.034 E29.41248
G1 X119.72 Y99.836 E29.42246
G1 X119.72 Y90.164 E29.87282
M204 S3000
M205 X10 Y10
G1 F2400 E25.87282
;MESH:demofield1.stl
G0 F3000 X120.854 Y90.854
G0 X129.09 Y99.09
G0 X129.72 Y99.72
M204 S1800
M205 X8 Y8
;TYPE:WALL-OUTER
G1 F2400 E29.90608
G1 F1500 X120.28 Y99.72 E30.34565
G1 X120.28 Y90.28 E30.78522
G1 X129.72 Y90.28 E31.22478
G1 X129.72 Y99.72 E31.66435
M204 S3000
M205 X10 Y10
G0 F3000 X129.52 Y99.72
G0 X129.16 Y99.16
M204 S1800
M205 X8 Y8
;TYPE:WALL-INNER
G1 F1500 X120.84 Y99.16 E32.05176
G1 X120.84 Y90.84 E32.43918
G1 X129.16 Y90.84 E32.82659
G1 X129.16 Y99.16 E33.214
M204 S3000
M205 X10 Y10
G0 F3000 X128.6 Y98.6
M204 S1800
M205 X8 Y8
G1 F1500 X121.4 Y98.6 E33.54927
G1 X121.4 Y91.4 E33.88453
G1 X128.6 Y91.4 E34.21979
G1 X128.6 Y98.6 E34.55505
M204 S3000
M205 X10 Y10
G0 F3000 X128.05 Y98.05
M204 S1800
M205 X8 Y8
;TYPE:SKIN
G1 F1500 X121.95 Y98.05 E34.8391
G1 X121.95 Y91.95 E35.12314
G1 X128.05 Y91.95 E35.40718
G1 X128.05 Y98.05 E35.69122
M204 S3000
M205 X10 Y10
G0 F3000 X127.789 Y92.943
M204 S1800
M205 X8 Y8
G1 F1500 X127.056 Y92.21 E35.73949
M204 S3000
M205 X10 Y10
G0 F3000 X126.264 Y92.21
M204 S1800
M205 X8 Y8
G1 F1500 X127.789 Y93.735 E35.83991
M204 S3000
M205 X10 Y10
G0 F3000 X127.789 Y94.527
M204 S1800
M205 X8 Y8
G1 F1500 X125.472 Y92.21 E35.99249
M204 S3000
M205 X10 Y10
G0 F3000 X124.68 Y92.21
M204 S1800
M205 X8 Y8
G1 F1500 X127.789 Y95.319 E36.19722
M204 S3000
M205 X10 Y10
G0 F3000 X127.789 Y96.111
M204 S1800
M205 X8 Y8
G1 F1500 X123.888 Y92.21 E36.45411
M204 S3000
M205 X10 Y10
G0 F3000 X123.096 Y92.21
M204 S1800
M205 X8 Y8
G1 F1500 X127.789 Y96.903 E36.76315
M204 S3000
M205 X10 Y10
G0 F3000 X127.789 Y97.695
M204 S1800
M205 X8 Y8
G1 F1500 X122.304 Y92.21 E37.12435
M204 S3000
M205 X10 Y10
G0 F3000 X122.209 Y92.906
M204 S1800
M205 X8 Y8
G1 F1500 X127.092 Y97.79 E37.44594
M204 S3000
M205 X10 Y10
G0 F3000 X126.3 Y97.79
M204 S1800
M205 X8 Y8
G1 F1500 X122.209 Y93.698 E37.71537
M204 S3000
M205 X10 Y10
G0 F3000 X122.209 Y94.49
M204 S1800
M205 X8 Y8
G1 F1500 X125.508 Y97.79 E37.93265
M204 S3000
M205 X10 Y10
G0 F3000 X124.716 Y97.79
M204 S1800
M205 X8 Y8
G1 F1500 X122.209 Y95.282 E38.09777
M204 S3000
M205 X10 Y10
G0 F3000 X122.209 Y96.074
M204 S1800
M205 X8 Y8
G1 F1500 X123.924 Y97.79 E38.21074
M204 S3000
M205 X10 Y10
G0 F3000 X123.132 Y97.79
M204 S1800
M205 X8 Y8
G1 F1500 X122.209 Y96.866 E38.27155
M204 S3000
M205 X10 Y10
G0 F3000 X122.209 Y97.658
M204 S1800
M205 X8 Y8
G1 F1500 X122.34 Y97.79 E38.28021
M204 S3000
M205 X10 Y10
G1 F2400 E34.28021
G0 F3000 X120.86 Y99.09
G0 X119.335 Y99.09
G0 X100.665 Y99.09
G0 X99.14 Y99.09
G0 X99.72 Y99.72
M204 S1800
M205 X8 Y8
;TYPE:WALL-OUTER
G1 F2400 E38.31347
G1 F1500 X80.28 Y99.72 E39.21868
G1 X80.28 Y90.28 E39.65825
G1 X99.72 Y90.28 E40.56345
G1 X99.72 Y99.72 E41.00302
M204 S3000
M205 X10 Y10
G0 F3000 X99.52 Y99.72
G0 X99.16 Y99.16
M204 S1800
M205 X8 Y8
;TYPE:WALL-INNER
G1 F1500 X80.84 Y99.16 E41.85608
G1 X80.84 Y90.84 E42.24349
G1 X99.16 Y90.84 E43.09655
G1 X99.16 Y99.16 E43.48396
M204 S3000
M205 X10 Y10
G0 F3000 X98.6 Y98.6
M204 S1800
M205 X8 Y8
G1 F1500 X81.4 Y98.6 E44.28486
G1 X81.4 Y91.4 E44.62013
G1 X98.6 Y91.4 E45.42103
G1 X98.6 Y98.6 E45.75629
M204 S3000
M205 X10 Y10
G0 F3000 X98.05 Y98.05
M204 S1800
M205 X8 Y8
;TYPE:SKIN
G1 F1500 X81.95 Y98.05 E46.50598
G1 X81.95 Y91.95 E46.79002
G1 X98.05 Y91.95 E47.5397
G1 X98.05 Y98.05 E47.82374
M204 S3000
M205 X10 Y10
G0 F3000 X97.789 Y93.037
M204 S1800
M205 X8 Y8
G1 F1500 X96.962 Y92.21 E47.8782
M204 S3000
M205 X10 Y10
G0 F3000 X96.17 Y92.21
M204 S1800
M205 X8 Y8
G1 F1500 X97.789 Y93.829 E47.98482
M204 S3000
M205 X10 Y10
G0 F3000 X97.789 Y94.621
M204 S1800
M205 X8 Y8
G1 F1500 X95.378 Y92.21 E48.14358
M204 S3000
M205 X10 Y10
G0 F3000 X94.586 Y92.21
M204 S1800
M205 X8 Y8
G1 F1500 X97.789 Y95.413 E48.35451
M204 S3000
M205 X10 Y10
G0 F3000 X97.789 Y96.205
M204 S1800
M205 X8 Y8
G1 F1500 X93.794 Y92.21 E48.61759
M204 S3000
M205 X10 Y10
G0 F3000 X93.002 Y92.21
M204 S1800
M205 X8 Y8
G1 F1500 X97.789 Y96.997 E48.93282
M204 S3000
M205 X10 Y10
G0 F3000 X97.789 Y97.789
M204 S1800
M205 X8 Y8
G1 F1500 X92.21 Y92.21 E49.3002
M204 S3000
M205 X10 Y10
G0 F3000 X91.418 Y92.21
M204 S1800
M205 X8 Y8
G1 F1500 X96.997 Y97.789 E49.66759
M204 S3000
M205 X10 Y10
G0 F3000 X96.205 Y97.789
M204 S1800
M205 X8 Y8
G1 F1500 X90.626 Y92.21 E50.03498
M204 S3000
M205 X10 Y10
G0 F3000 X89.834 Y92.21
M204 S1800
M205 X8 Y8
G1 F1500 X95.413 Y97.789 E50.40236
M204 S3000
M205 X10 Y10
G0 F3000 X94.621 Y97.789
M204 S1800
M205 X8 Y8
G1 F1500 X89.042 Y92.21 E50.76975
M204 S3000
M205 X10 Y10
G0 F3000 X88.25 Y92.21
M204 S1800
M205 X8 Y8
G1 F1500 X93.829 Y97.789 E51.13714
M204 S3000
M205 X10 Y10
G0 F3000 X93.037 Y97.789
M204 S1800
M205 X8 Y8
G1 F1500 X87.458 Y92.21 E51.50452
M204 S3000
M205 X10 Y10
G0 F3000 X86.666 Y92.21
M204 S1800
M205 X8 Y8
G1 F1500 X92.245 Y97.789 E51.87191
M204 S3000
M205 X10 Y10
G0 F3000 X91.453 Y97.789
M204 S1800
M205 X8 Y8
G1 F1500 X85.874 Y92.21 E52.2393
M204 S3000
M205 X10 Y10
G0 F3000 X85.082 Y92.21
M204 S1800
M205 X8 Y8
G1 F1500 X90.661 Y97.789 E52.60668
M204 S3000
M205 X10 Y10
G0 F3000 X89.869 Y97.789
M204 S1800
M205 X8 Y8
G1 F1500 X84.29 Y92.21 E52.97407
M204 S3000
M205 X10 Y10
G0 F3000 X83.498 Y92.21
M204 S1800
M205 X8 Y8
G1 F1500 X89.077 Y97.789 E53.34146
M204 S3000
M205 X10 Y10
G0 F3000 X88.285 Y97.789
M204 S1800
M205 X8 Y8
G1 F1500 X82.706 Y92.21 E53.70884
M204 S3000
M205 X10 Y10
G0 F3000 X82.209 Y92.505
M204 S1800
M205 X8 Y8
G1 F1500 X87.493 Y97.789 E54.0568
M204 S3000
M205 X10 Y10
G0 F3000 X86.701 Y97.789
M204 S1800
M205 X8 Y8
G1 F1500 X82.209 Y93.297 E54.35261
M204 S3000
