;FLAVOR:Marlin
;TIME:9814
;Filament used: 5.27659m
;Layer height: 0.2
;MINX:22.233
;MINY:18.594
;MINZ:0.2
;MAXX:195.193
;MAXY:191.405
;MAXZ:5.4
;Generated with Cura_SteamEngine 4.9.0
M82 ;absolute extrusion mode
M140 S70 ; heat bed, nonblocking ;moved up
G21 ;metric values
G90 ;absolute positioning
M82 ;set extruder to absolute mode
M107 ;start with the fan off
G28 X0 Y0 ;move X/Y to min endstops
G28 Z0 ;move Z to min endstops
G1 Z15.0 F100 ;move the platform down 15mm
G92 E0 ;zero the extruded length
G1 F200 E3 ;extrude 3mm of feed stock
G92 E0 ;zero the extruded length again
G1 F100
G0 Y20 F100
M109 S215 ; heat hot end, blocking
M190 S70 ; heat bed, blocking

M117 Printing...
G5
G92 E0
G92 E0
G1 F2400 E-4
;LAYER_COUNT:27
;LAYER:0
M107
M204 S3000
M205 X10 Y10
G1 F600 Z0.275
G0 F3000 X24.647 Y20.959 Z0.275
M204 S1800
M205 X8 Y8
;TYPE:SKIRT
G1 F600 Z0.2
G1 F2400 E0.03326
G1 X25.13 Y20.431 E0.06658
G1 X25.669 Y19.961 E0.09988
G1 X26.257 Y19.554 E0.13318
G1 X26.886 Y19.214 E0.16647
G1 X27.55 Y18.947 E0.1998
G1 X28.239 Y18.756 E0.23309
G1 X28.945 Y18.643 E0.26638
G1 X29.752 Y18.602 E0.30401
G1 X30.293 Y18.597 E0.3292
G1 X30.613 Y18.6 E0.3441
G1 X31.331 Y18.6 E0.37754
G1 X31.903 Y18.6 E0.40417
G1 X32.492 Y18.599 E0.4316
G1 X34.149 Y18.604 E0.50875
G1 X35.028 Y18.598 E0.54969
G1 X36.573 Y18.6 E0.62163
G1 X36.97 Y18.597 E0.64011
G1 X39.754 Y18.604 E0.76975
G1 X40.436 Y18.6 E0.80151
G1 X43.86 Y18.601 E0.96094
G1 X44.493 Y18.594 E0.99042
G1 X45.223 Y18.6 E1.02441
G1 X48.757 Y18.6 E1.18897
G1 X49.763 Y18.598 E1.23581
G1 X51.623 Y18.6 E1.32242
G1 X52.373 Y18.6 E1.35735
G1 X53.508 Y18.6 E1.4102
G1 X54.253 Y18.596 E1.44489
G1 X56.863 Y18.604 E1.56642
G1 X57.693 Y18.598 E1.60507
G1 X59.506 Y18.605 E1.68949
G1 X60.437 Y18.598 E1.73284
G1 X61.912 Y18.603 E1.80153
G1 X62.314 Y18.6 E1.82025
G1 X64.826 Y18.6 E1.93721
G1 X65.684 Y18.603 E1.97717
G1 X66.366 Y18.6 E2.00892
G1 X68.324 Y18.598 E2.1001
G1 X69.393 Y18.6 E2.14987
G1 X70.019 Y18.596 E2.17902
G1 X70.101 Y18.6 E2.18285
G1 X72.324 Y18.601 E2.28636
G1 X72.844 Y18.608 E2.31057
G1 X75.57 Y18.608 E2.43751
G1 X75.851 Y18.603 E2.45059
G1 X76.649 Y18.598 E2.48775
G1 X78.705 Y18.6 E2.58349
G1 X79.537 Y18.599 E2.62223
G1 X80.55 Y18.603 E2.6694
G1 X81.423 Y18.6 E2.71005
G1 X81.776 Y18.598 E2.72649
G1 X83.668 Y18.605 E2.81459
G1 X84.306 Y18.6 E2.8443
G1 X84.833 Y18.595 E2.86884
G1 X85.493 Y18.6 E2.89957
G1 X87.695 Y18.599 E3.00211
G1 X88.789 Y18.603 E3.05305
G1 X89.491 Y18.598 E3.08574
G1 X90.364 Y18.602 E3.12639
G1 X90.783 Y18.599 E3.1459
G1 X91.514 Y18.602 E3.17994
G1 X92.646 Y18.599 E3.23265
G1 X93.183 Y18.6 E3.25765
G1 X93.642 Y18.605 E3.27903
G1 X96.211 Y18.605 E3.39865
G1 X96.9 Y18.6 E3.43073
G1 X98.705 Y18.6 E3.51478
G1 X99.815 Y18.598 E3.56647
G1 X102.016 Y18.6 E3.66896
G1 X102.319 Y18.598 E3.68307
G1 X103.493 Y18.6 E3.73773
G1 X103.85 Y18.599 E3.75436
G1 X106.838 Y18.607 E3.89349
G1 X107.787 Y18.6 E3.93768
G1 X108.353 Y18.595 E3.96404
G1 X109.033 Y18.596 E3.9957
G1 X109.353 Y18.6 E4.0106
G1 X110.558 Y18.6 E4.06671
G1 X111.76 Y18.604 E4.12268
G1 X112.436 Y18.6 E4.15416
G1 X117.372 Y18.6 E4.384
G1 X117.648 Y18.598 E4.39685
G1 X121.26 Y18.6 E4.56504
G1 X122.837 Y18.6 E4.63848
G1 X123.233 Y18.595 E4.65692
G1 X124.02 Y18.6 E4.69356
G1 X125.723 Y18.598 E4.77286
G1 X127.087 Y18.601 E4.83638
G1 X127.464 Y18.6 E4.85393
G1 X129.561 Y18.607 E4.95158
G1 X130.897 Y18.599 E5.01379
G1 X131.926 Y18.603 E5.0617
G1 X132.606 Y18.601 E5.09337
G1 X133.353 Y18.6 E5.12815
G1 X134.26 Y18.601 E5.17038
G1 X134.733 Y18.598 E5.19241
G1 X137.35 Y18.604 E5.31427
G1 X137.873 Y18.6 E5.33862
G1 X138.33 Y18.597 E5.3599
G1 X139.98 Y18.6 E5.43673
G1 X145.063 Y18.6 E5.67342
G1 X145.773 Y18.597 E5.70648
G1 X147.54 Y18.601 E5.78876
G1 X148.013 Y18.598 E5.81078
G1 X148.63 Y18.6 E5.83951
G1 X149.64 Y18.598 E5.88654
G1 X150.213 Y18.6 E5.91322
G1 X150.574 Y18.599 E5.93003
G1 X151.743 Y18.603 E5.98447
G1 X152.466 Y18.598 E6.01813
G1 X153.279 Y18.6 E6.05599
G1 X157.349 Y18.599 E6.24551
G1 X157.989 Y18.601 E6.27531
G1 X161.904 Y18.598 E6.45761
G1 X162.878 Y18.602 E6.50296
G1 X164.166 Y18.599 E6.56294
G1 X165.295 Y18.599 E6.61551
G1 X166.393 Y18.603 E6.66664
G1 X167.268 Y18.6 E6.70738
G1 X168.013 Y18.596 E6.74207
G1 X168.638 Y18.6 E6.77117
G1 X171.684 Y18.6 E6.91301
G1 X172.773 Y18.602 E6.96372
G1 X173.777 Y18.599 E7.01047
G1 X174.798 Y18.603 E7.05801
G1 X175.316 Y18.6 E7.08213
G1 X182.861 Y18.6 E7.43346
G1 X183.941 Y18.601 E7.48375
G1 X185.262 Y18.606 E7.54526
G1 X186.471 Y18.598 E7.60156
G1 X188.018 Y18.601 E7.67359
G1 X188.716 Y18.611 E7.7061
G1 X189.429 Y18.661 E7.73938
G1 X190.133 Y18.79 E7.7727
G1 X190.817 Y18.998 E7.80599
G1 X191.474 Y19.28 E7.83929
G1 X192.096 Y19.634 E7.87261
G1 X192.674 Y20.055 E7.90591
G1 X193.202 Y20.538 E7.93923
G1 X193.672 Y21.076 E7.97249
G1 X194.08 Y21.664 E8.00582
G1 X194.419 Y22.294 E8.03913
G1 X194.686 Y22.957 E8.07241
G1 X194.877 Y23.647 E8.10575
G1 X194.99 Y24.353 E8.13904
G1 X195.03 Y25.125 E8.17504
G1 X195.033 Y25.314 E8.18384
G1 X195.032 Y34.383 E8.60613
G1 X195.008 Y36.039 E8.68325
G1 X194.978 Y37.106 E8.73295
G1 X194.98 Y39.785 E8.8577
G1 X195.056 Y42.421 E8.98049
G1 X195.126 Y43.828 E9.04609
G1 X195.172 Y44.633 E9.08364
G1 X195.19 Y45.136 E9.10707
G1 X195.193 Y45.33 E9.11611
G1 X195.192 Y54.362 E9.53667
G1 X195.182 Y55.086 E9.57039
G1 X195.177 Y55.269 E9.57891
G1 X195.117 Y56.683 E9.64482
G1 X195.043 Y59.324 E9.76784
G1 X195.033 Y60.699 E9.83187
G1 X195.032 Y64.384 E10.00346
G1 X195.022 Y65.091 E10.03638
G1 X195.017 Y65.269 E10.04467
G1 X194.987 Y65.994 E10.07846
G1 X194.911 Y68.664 E10.20284
G1 X194.911 Y71.344 E10.32763
G1 X194.985 Y73.961 E10.44954
G1 X195.013 Y74.554 E10.47718
G1 X195.03 Y75.147 E10.5048
G1 X195.033 Y75.33 E10.51333
G1 X195.033 Y79.515 E10.7082
G1 X195.071 Y82.155 E10.83114
G1 X195.172 Y84.537 E10.94215
G1 X195.19 Y85.139 E10.9702
G1 X195.193 Y85.33 E10.97909
G1 X195.192 Y104.384 E11.86633
G1 X195.182 Y105.089 E11.89916
G1 X195.177 Y105.269 E11.90754
G1 X195.117 Y106.683 E11.97344
G1 X195.043 Y109.301 E12.0954
G1 X195.033 Y110.699 E12.1605
G1 X195.033 Y119.516 E12.57105
G1 X195.071 Y122.155 E12.69395
G1 X195.172 Y124.537 E12.80496
G1 X195.19 Y125.139 E12.83301
G1 X195.193 Y125.33 E12.8419
G1 X195.192 Y144.362 E13.72811
G1 X195.182 Y145.086 E13.76183
G1 X195.177 Y145.269 E13.77035
G1 X195.117 Y146.683 E13.83625
G1 X195.043 Y149.324 E13.95928
G1 X195.033 Y150.699 E14.02331
G1 X195.032 Y154.362 E14.19387
G1 X195.022 Y155.087 E14.22763
G1 X195.017 Y155.271 E14.2362
G1 X194.957 Y156.684 E14.30206
G1 X194.883 Y159.324 E14.42504
G1 X194.873 Y160.699 E14.48906
G1 X194.872 Y164.384 E14.66065
G1 X194.862 Y165.09 E14.69353
G1 X194.857 Y165.271 E14.70196
G1 X194.797 Y166.684 E14.76782
G1 X194.723 Y169.324 E14.89079
G1 X194.713 Y170.699 E14.95482
G1 X194.712 Y174.385 E15.12646
G1 X194.702 Y175.083 E15.15896
G1 X194.674 Y175.636 E15.18474
G1 X194.466 Y178.086 E15.29924
G1 X194.319 Y180.706 E15.42143
G1 X194.254 Y183.723 E15.56194
G1 X194.239 Y183.92 E15.57114
G1 X194.222 Y185.082 E15.62526
G1 X194.172 Y185.796 E15.65859
G1 X194.043 Y186.499 E15.69187
G1 X193.836 Y187.184 E15.72519
G1 X193.553 Y187.841 E15.7585
G1 X193.2 Y188.463 E15.7918
G1 X192.779 Y189.041 E15.8251
G1 X192.296 Y189.569 E15.85842
G1 X191.757 Y190.039 E15.89172
G1 X191.169 Y190.446 E15.92502
G1 X190.54 Y190.786 E15.95831
G1 X189.876 Y191.053 E15.99164
G1 X189.187 Y191.244 E16.02493
G1 X188.481 Y191.357 E16.05822
G1 X187.973 Y191.389 E16.08192
G1 X187.333 Y191.402 E16.11173
G1 X186.693 Y191.4 E16.14153
G1 X180.017 Y191.4 E16.45239
G1 X176.929 Y191.402 E16.59618
G1 X175.723 Y191.4 E16.65234
G1 X174.973 Y191.4 E16.68726
G1 X174.393 Y191.399 E16.71427
G1 X173.428 Y191.401 E16.7592
G1 X171.918 Y191.4 E16.82952
G1 X171.12 Y191.403 E16.86667
G1 X170.805 Y191.4 E16.88134
G1 X170.253 Y191.4 E16.90705
G1 X170.172 Y191.403 E16.91082
G1 X168.997 Y191.4 E16.96553
G1 X168.931 Y191.403 E16.96861
G1 X167.836 Y191.4 E17.0196
G1 X167.489 Y191.401 E17.03576
G1 X166.477 Y191.397 E17.08288
G1 X165.709 Y191.402 E17.11864
G1 X163.838 Y191.397 E17.20576
G1 X163.432 Y191.4 E17.22467
G1 X161.52 Y191.402 E17.3137
G1 X160.861 Y191.399 E17.34439
G1 X160.466 Y191.402 E17.36278
G1 X156.078 Y191.4 E17.5671
G1 X155.568 Y191.4 E17.59085
G1 X154.144 Y191.4 E17.65716
G1 X152.791 Y191.395 E17.72016
G1 X151.652 Y191.401 E17.7732
G1 X150.471 Y191.397 E17.82819
G1 X149.092 Y191.401 E17.8924
G1 X147.041 Y191.394 E17.98791
G1 X145.302 Y191.402 E18.06888
G1 X144.533 Y191.403 E18.10469
G1 X144.003 Y191.4 E18.12937
G1 X143.473 Y191.405 E18.15405
G1 X142.723 Y191.4 E18.18897
G1 X142.193 Y191.405 E18.21365
G1 X141.628 Y191.401 E18.23996
G1 X139.617 Y191.394 E18.3336
G1 X138.792 Y191.4 E18.37202
G1 X136.641 Y191.4 E18.47218
G1 X136.113 Y191.405 E18.49677
G1 X135.536 Y191.401 E18.52364
G1 X132.073 Y191.4 E18.68489
G1 X131.641 Y191.404 E18.705
G1 X129.764 Y191.397 E18.79241
G1 X129.204 Y191.401 E18.81848
G1 X128.237 Y191.397 E18.86351
G1 X127.176 Y191.403 E18.91292
G1 X126.056 Y191.4 E18.96507
G1 X124.881 Y191.4 E19.01978
G1 X124.326 Y191.4 E19.04562
G1 X122.573 Y191.398 E19.12725
G1 X121.937 Y191.403 E19.15687
G1 X121.09 Y191.4 E19.19631
G1 X119.253 Y191.4 E19.28184
G1 X118.843 Y191.403 E19.30094
G1 X118.209 Y191.4 E19.33046
G1 X117.089 Y191.401 E19.38261
G1 X116.076 Y191.397 E19.42978
G1 X115.175 Y191.4 E19.47174
G1 X113.058 Y191.394 E19.57031
G1 X111.969 Y191.401 E19.62102
G1 X110.958 Y191.397 E19.6681
G1 X109.833 Y191.404 E19.72048
G1 X109.273 Y191.4 E19.74656
G1 X107.433 Y191.4 E19.83224
G1 X106.633 Y191.4 E19.86949
G1 X106.033 Y191.405 E19.89743
G1 X105.412 Y191.4 E19.92635
G1 X103.963 Y191.403 E19.99382
G1 X103.046 Y191.4 E20.03652
G1 X100.864 Y191.4 E20.13812
G1 X99.518 Y191.395 E20.2008
G1 X98.513 Y191.402 E20.24759
G1 X97.619 Y191.404 E20.28922
G1 X97.138 Y191.402 E20.31162
G1 X95.686 Y191.4 E20.37923
G1 X93.798 Y191.398 E20.46715
G1 X93.245 Y191.402 E20.4929
G1 X90.954 Y191.397 E20.59957
G1 X89.893 Y191.403 E20.64898
G1 X89.5 Y191.401 E20.66728
G1 X88.889 Y191.392 E20.69573
G1 X86.176 Y191.392 E20.82206
G1 X85.487 Y191.4 E20.85415
G1 X84.54 Y191.4 E20.89824
G1 X83.85 Y191.404 E20.93037
G1 X82.372 Y191.4 E20.9992
G1 X79.253 Y191.4 E21.14443
G1 X78.851 Y191.403 E21.16315
G1 X77.711 Y191.399 E21.21623
G1 X77.263 Y191.402 E21.23709
G1 X74.316 Y191.396 E21.37432
G1 X73.793 Y191.4 E21.39867
G1 X72.041 Y191.398 E21.48025
G1 X71.497 Y191.402 E21.50558
G1 X70.575 Y191.398 E21.54852
G1 X70.248 Y191.4 E21.56374
G1 X69.359 Y191.397 E21.60514
G1 X68.568 Y191.402 E21.64197
G1 X67.563 Y191.4 E21.68877
G1 X66.813 Y191.4 E21.72369
G1 X65.5 Y191.4 E21.78483
G1 X64.63 Y191.4 E21.82534
G1 X63.96 Y191.4 E21.85654
G1 X62.394 Y191.395 E21.92946
G1 X61.385 Y191.403 E21.97645
G1 X61.273 Y191.4 E21.98166
G1 X59.276 Y191.4 E22.07465
G1 X58.754 Y191.4 E22.09896
G1 X56.609 Y191.401 E22.19884
G1 X55.588 Y191.397 E22.24638
G1 X55.068 Y191.4 E22.27059
G1 X54.25 Y191.4 E22.30868
G1 X54.202 Y191.403 E22.31092
G1 X53.212 Y191.399 E22.35702
G1 X52.769 Y191.401 E22.37765
G1 X51.756 Y191.397 E22.42482
G1 X51.336 Y191.4 E22.44438
G1 X50.737 Y191.399 E22.47227
G1 X50.323 Y191.393 E22.49155
G1 X47.601 Y191.393 E22.6183
G1 X47.39 Y191.397 E22.62812
G1 X46.387 Y191.4 E22.67483
G1 X44.001 Y191.395 E22.78593
G1 X43.129 Y191.401 E22.82653
G1 X42.296 Y191.4 E22.86532
G1 X41.139 Y191.402 E22.9192
G1 X38.94 Y191.4 E23.02159
G1 X38.02 Y191.4 E23.06443
G1 X37.086 Y191.399 E23.10792
G1 X36.373 Y191.405 E23.14112
G1 X36.268 Y191.4 E23.14602
G1 X33.585 Y191.4 E23.27095
G1 X32.396 Y191.396 E23.32632
G1 X31.57 Y191.402 E23.36478
G1 X30.484 Y191.401 E23.41535
G1 X29.34 Y191.4 E23.46862
G1 X28.55 Y191.389 E23.50541
G1 X27.837 Y191.339 E23.53869
G1 X27.133 Y191.21 E23.57201
G1 X26.449 Y191.002 E23.6053
G1 X25.792 Y190.72 E23.6386
G1 X25.17 Y190.366 E23.67192
G1 X24.592 Y189.945 E23.70522
G1 X24.064 Y189.462 E23.73854
G1 X23.594 Y188.924 E23.7718
G1 X23.186 Y188.336 E23.80513
G1 X22.847 Y187.706 E23.83844
G1 X22.58 Y187.043 E23.87172
G1 X22.389 Y186.353 E23.90506
G1 X22.276 Y185.647 E23.93835
G1 X22.235 Y184.831 E23.9764
G1 X22.233 Y184.658 E23.98445
G1 X22.234 Y165.616 E24.87113
G1 X22.244 Y164.91 E24.90401
G1 X22.259 Y164.545 E24.92102
G1 X22.335 Y163.484 E24.97055
G1 X22.488 Y160.775 E25.09689
G1 X22.563 Y158.165 E25.21847
G1 X22.563 Y155.461 E25.34438
G1 X22.553 Y154.734 E25.37824
G1 X22.553 Y152.897 E25.46378
G1 X22.515 Y150.253 E25.58691
G1 X22.403 Y147.618 E25.70971
G1 X22.296 Y146.098 E25.78067
G1 X22.253 Y145.365 E25.81486
G1 X22.236 Y144.851 E25.8388
G1 X22.233 Y144.671 E25.84719
G1 X22.234 Y115.616 E27.20011
G1 X22.244 Y114.909 E27.23303
G1 X22.249 Y114.728 E27.24146
G1 X22.309 Y113.316 E27.30727
G1 X22.383 Y110.676 E27.43025
G1 X22.393 Y109.301 E27.49428
G1 X22.394 Y105.616 E27.66587
G1 X22.404 Y104.909 E27.69879
G1 X22.429 Y104.258 E27.72913
G1 X22.534 Y102.395 E27.81601
G1 X22.609 Y99.793 E27.93722
G1 X22.611 Y97.092 E28.06299
G1 X22.578 Y95.588 E28.13304
G1 X22.556 Y94.86 E28.16696
G1 X22.553 Y94.671 E28.17576
G1 X22.554 Y65.618 E29.52859
G1 X22.564 Y64.9 E29.56202
G1 X22.569 Y64.717 E29.57055
G1 X22.601 Y63.966 E29.60555
G1 X22.675 Y61.336 E29.72806
G1 X22.675 Y58.657 E29.85281
G1 X22.601 Y56.038 E29.97481
G1 X22.573 Y55.447 E30.00236
G1 X22.556 Y54.855 E30.02994
G1 X22.553 Y54.671 E30.03851
G1 X22.554 Y45.616 E30.46014
G1 X22.564 Y44.909 E30.49307
G1 X22.569 Y44.728 E30.5015
G1 X22.629 Y43.316 E30.56731
G1 X22.703 Y40.676 E30.69029
G1 X22.713 Y39.301 E30.75431
G1 X22.714 Y35.615 E30.92595
G1 X22.724 Y34.917 E30.95845
G1 X22.752 Y34.364 E30.98424
G1 X22.96 Y31.914 E31.09873
G1 X23.107 Y29.294 E31.22092
G1 X23.172 Y26.277 E31.36144
G1 X23.187 Y26.08 E31.37064
G1 X23.204 Y24.918 E31.42475
G1 X23.254 Y24.204 E31.45808
G1 X23.383 Y23.501 E31.49136
G1 X23.59 Y22.816 E31.52468
G1 X23.873 Y22.159 E31.55799
G1 X24.226 Y21.537 E31.59129
G1 X24.647 Y20.959 E31.62459
M204 S3000
M205 X10 Y10
G0 F3000 X25.199 Y21.173
M204 S1800
M205 X8 Y8
G1 F2400 X25.677 Y20.685 E31.6564
G1 X26.209 Y20.256 E31.68822
G1 X26.788 Y19.892 E31.72007
G1 X27.404 Y19.599 E31.75183
G1 X28.051 Y19.379 E31.78365
G1 X28.719 Y19.236 E31.81546
G1 X29.442 Y19.171 E31.84926
G1 X30.175 Y19.157 E31.8834
G1 X30.608 Y19.16 E31.90356
G1 X31.339 Y19.16 E31.9376
G1 X31.893 Y19.16 E31.9634
G1 X32.49 Y19.159 E31.99119
G1 X34.151 Y19.164 E32.06854
G1 X35.027 Y19.158 E32.10933
G1 X36.578 Y19.16 E32.18155
G1 X36.969 Y19.157 E32.19976
G1 X39.756 Y19.164 E32.32953
G1 X40.439 Y19.16 E32.36134
G1 X43.864 Y19.161 E32.52082
G1 X44.491 Y19.154 E32.55002
G1 X45.228 Y19.16 E32.58434
G1 X48.766 Y19.16 E32.74908
G1 X49.762 Y19.158 E32.79546
G1 X51.646 Y19.16 E32.88318
G1 X52.368 Y19.16 E32.9168
G1 X53.541 Y19.16 E32.97142
G1 X54.251 Y19.156 E33.00448
G1 X56.866 Y19.164 E33.12625
G1 X57.691 Y19.158 E33.16467
G1 X59.509 Y19.165 E33.24932
G1 X60.435 Y19.158 E33.29244
G1 X61.914 Y19.163 E33.36131
G1 X62.318 Y19.16 E33.38012
G1 X64.824 Y19.16 E33.49681
G1 X65.684 Y19.163 E33.53686
G1 X66.368 Y19.16 E33.56871
G1 X68.322 Y19.158 E33.65969
G1 X69.397 Y19.16 E33.70975
G1 X70.023 Y19.156 E33.7389
G1 X70.099 Y19.16 E33.74244
G1 X72.323 Y19.161 E33.846
G1 X72.836 Y19.168 E33.86989
G1 X75.582 Y19.168 E33.99776
G1 X75.854 Y19.163 E34.01043
G1 X76.648 Y19.158 E34.0474
G1 X78.706 Y19.16 E34.14323
G1 X79.535 Y19.159 E34.18183
G1 X80.552 Y19.163 E34.22919
G1 X81.421 Y19.16 E34.26965
G1 X81.773 Y19.158 E34.28604
G1 X83.67 Y19.165 E34.37437
G1 X84.31 Y19.16 E34.40418
G1 X84.829 Y19.155 E34.42834
G1 X85.488 Y19.16 E34.45903
G1 X87.693 Y19.159 E34.5617
G1 X88.791 Y19.163 E34.61283
G1 X89.488 Y19.158 E34.64529
